(FRAME)
(T1  D=3.175 CR=0. - ZMIN=-18. - FLAT END MILL)
(T2  D=3. CR=0. TAPER=118DEG - ZMIN=-18. - DRILL)
G90 G94 G91.1 G40 G49 G17
G21

(79.401MM DRILL)
M5
T2 M6
S9700 M3
G54
G0 X1204.986 Y965.701
G43 Z15. H2
Z5.
G98 G81 X1204.986 Y965.701 Z-18. R5. F728.
G80
Z15.

(6.6MM DRILL)
G0 X155.361 Y2316.746
Z15.
Z5.
G81 X155.361 Y2316.746 Z-18. R5. F728.
Y2136.746
Y1956.746
Y1776.746
X296.361 Y1606.746
X476.361
X656.361
X836.361
G80
Z15.

(3.4MM DRILL)
G0 X353.059 Y976.161
Z15.
Z5.
G81 X353.059 Y976.161 Z-18. R5. F728.
X555.118 Y951.161
X757.177 Y976.161
X670.118 Y1186.811
X440.118
X17. Y1342.161
Y1167.161
X67. Y1186.811
X66. Y1138.161
X17. Y992.161
X76. Y976.161
X151. Y951.161
X17. Y817.161
Y488.21
Y159.259
X151. Y25.259
X555.118
X959.236
X1093.236 Y159.259
X1118.236 Y67.
X1203.911 Y17.
X1118.236 Y440.118
X1093.236 Y488.21
X1118.236 Y670.118
X1093.236 Y817.161
X959.236 Y951.161
X1044.236 Y976.161
X1093.236 Y992.161
X1118.236 Y1043.237
X1203.911 Y1093.237
X1093.236 Y1167.161
X1043.236 Y1186.811
X1044.236 Y1138.161
X813.361 Y1696.746
X659.361 Y1637.746
X568.361 Y1696.746
X502.361 Y1637.746
X406.361 Y1696.746
X252.361 Y1637.746
X406.361 Y1951.221
X568.361 Y1936.221
X813.361 Y1951.221
X1000.361 Y2025.529
X975.361 Y1936.221
X1000.361 Y1795.529
X975.361 Y1696.746
X909.361 Y1637.746
X1000.361 Y1593.411
X1036.361 Y1487.411
X1093.236 Y1342.161
X1210.111 Y1487.411
X1246.111 Y1593.411
X1196.614 Y1593.606
Y1547.606
X1137.608
Y1593.606
Y1639.606
Y1685.606
Y1731.606
Y1777.606
Y1827.606
Y1873.606
X1196.614
Y1827.606
X1246.111 Y1795.529
X1196.614 Y1777.606
Y1731.606
Y1685.606
Y1639.606
X1246.111 Y2025.529
Y2255.529
X1196.614 Y2244.74
Y2198.74
Y2152.74
Y2106.74
X1137.608
Y2152.74
Y2198.74
Y2244.74
Y2290.74
Y2336.74
X1196.614
Y2290.74
X1000.361 Y2255.529
X975.361 Y2265.172
X813.361 Y2250.172
X733.873 Y2317.897
X624.198
X568.361 Y2265.172
X406.361 Y2250.172
X326.873 Y2317.897
X217.198
X252.361 Y2563.647
X357.711 Y2440.772
X406.361 Y2504.647
X502.361 Y2563.647
X568.361 Y2504.647
X659.361 Y2563.647
X764.711 Y2440.772
X813.361 Y2504.647
X909.361 Y2563.647
X1036.361
X975.361 Y2504.647
X1000.361 Y2457.647
X1095.709 Y2461.772
X1064.709
X1042.209 Y2439.647
X1064.709 Y2417.522
X1095.709
X1118.209 Y2439.647
X1128.262
X1150.762 Y2417.522
X1181.762
X1204.262 Y2439.647
X1181.762 Y2461.772
X1150.762
X1246.111 Y2457.647
X1210.111 Y2563.647
G80
Z15.

(2D CONTOUR1)
M5
M1
T1 M6
S18000 M3
G54
G0 X819.821 Y1785.428
G43 Z15. H1
Z5.
G1 Z2. F833.
Z-2.683
G18 G2 X820.138 Z-3. I0.318 K0. F2500.
G1 X820.456
G17 G3 X820.773 Y1785.746 I0. J0.318
G1 Y1822.503
G2 X821.238 Y1823.626 I1.588 J0.
G3 X819.241 Y1825.623 I-0.999 J0.999
G2 X818.118 Y1825.158 I-1.122 J1.122
G1 X808.603
G2 X807.481 Y1825.623 I0. J1.587
G3 X805.483 Y1823.626 I-0.999 J-0.999
G2 X805.948 Y1822.503 I-1.123 J-1.122
G1 Y1780.989
G2 X805.483 Y1779.866 I-1.588 J0.
G3 X807.481 Y1777.868 I0.999 J-0.999
G2 X808.603 Y1778.333 I1.122 J-1.123
G1 X818.118
G2 X819.241 Y1777.868 I0. J-1.588
G3 X821.238 Y1779.866 I0.999 J0.999
G2 X820.773 Y1780.989 I1.123 J1.123
G1 Y1785.746
G3 X820.456 Y1786.063 I-0.318 J0.
G1 X820.138
G18 G3 X819.821 Z-2.683 I0. K0.318
G1 Y1780.671
Z-5.683 F833.
G2 X820.138 Z-6. I0.318 K0. F2500.
G1 X820.456
G17 G3 X820.773 Y1780.989 I0. J0.318
G1 Y1822.503
G2 X821.238 Y1823.626 I1.588 J0.
G3 X819.241 Y1825.623 I-0.999 J0.999
G2 X818.118 Y1825.158 I-1.122 J1.122
G1 X808.603
G2 X807.481 Y1825.623 I0. J1.587
G3 X805.483 Y1823.626 I-0.999 J-0.999
G2 X805.948 Y1822.503 I-1.123 J-1.122
G1 Y1780.989
G2 X805.483 Y1779.866 I-1.588 J0.
G3 X807.481 Y1777.868 I0.999 J-0.999
G2 X808.603 Y1778.333 I1.122 J-1.123
G1 X818.118
G2 X819.241 Y1777.868 I0. J-1.588
G3 X821.238 Y1779.866 I0.999 J0.999
G2 X820.773 Y1780.989 I1.123 J1.123
G3 X820.456 Y1781.306 I-0.318 J0.
G1 X820.138
G18 G3 X819.821 Z-5.683 I0. K0.318
G1 Y1780.671
Z-8.683 F833.
G2 X820.138 Z-9. I0.318 K0. F2500.
G1 X820.456
G17 G3 X820.773 Y1780.989 I0. J0.318
G1 Y1822.503
G2 X821.238 Y1823.626 I1.588 J0.
G3 X819.241 Y1825.623 I-0.999 J0.999
G2 X818.118 Y1825.158 I-1.122 J1.122
G1 X808.603
G2 X807.481 Y1825.623 I0. J1.587
G3 X805.483 Y1823.626 I-0.999 J-0.999
G2 X805.948 Y1822.503 I-1.123 J-1.122
G1 Y1780.989
G2 X805.483 Y1779.866 I-1.588 J0.
G3 X807.481 Y1777.868 I0.999 J-0.999
G2 X808.603 Y1778.333 I1.122 J-1.123
G1 X818.118
G2 X819.241 Y1777.868 I0. J-1.588
G3 X821.238 Y1779.866 I0.999 J0.999
G2 X820.773 Y1780.989 I1.123 J1.123
G3 X820.456 Y1781.306 I-0.318 J0.
G1 X820.138
G18 G3 X819.821 Z-8.683 I0. K0.318
G1 Y1780.671
Z-11.683 F833.
G2 X820.138 Z-12. I0.318 K0. F2500.
G1 X820.456
G17 G3 X820.773 Y1780.989 I0. J0.318
G1 Y1822.503
G2 X821.238 Y1823.626 I1.588 J0.
G3 X819.241 Y1825.623 I-0.999 J0.999
G2 X818.118 Y1825.158 I-1.122 J1.122
G1 X808.603
G2 X807.481 Y1825.623 I0. J1.587
G3 X805.483 Y1823.626 I-0.999 J-0.999
G2 X805.948 Y1822.503 I-1.123 J-1.122
G1 Y1780.989
G2 X805.483 Y1779.866 I-1.588 J0.
G3 X807.481 Y1777.868 I0.999 J-0.999
G2 X808.603 Y1778.333 I1.122 J-1.123
G1 X818.118
G2 X819.241 Y1777.868 I0. J-1.588
G3 X821.238 Y1779.866 I0.999 J0.999
G2 X820.773 Y1780.989 I1.123 J1.123
G3 X820.456 Y1781.306 I-0.318 J0.
G1 X820.138
G18 G3 X819.821 Z-11.683 I0. K0.318
G1 Y1780.671
Z-14.683 F833.
G2 X820.138 Z-15. I0.318 K0. F2500.
G1 X820.456
G17 G3 X820.773 Y1780.989 I0. J0.318
G1 Y1822.503
G2 X821.238 Y1823.626 I1.588 J0.
G3 X819.241 Y1825.623 I-0.999 J0.999
G2 X818.118 Y1825.158 I-1.122 J1.122
G1 X808.603
G2 X807.481 Y1825.623 I0. J1.587
G3 X805.483 Y1823.626 I-0.999 J-0.999
G2 X805.948 Y1822.503 I-1.123 J-1.122
G1 Y1780.989
G2 X805.483 Y1779.866 I-1.588 J0.
G3 X807.481 Y1777.868 I0.999 J-0.999
G2 X808.603 Y1778.333 I1.122 J-1.123
G1 X818.118
G2 X819.241 Y1777.868 I0. J-1.588
G3 X821.238 Y1779.866 I0.999 J0.999
G2 X820.773 Y1780.989 I1.123 J1.123
G3 X820.456 Y1781.306 I-0.318 J0.
G1 X820.138
G18 G3 X819.821 Z-14.683 I0. K0.318
G1 Y1780.671
Z-17.683 F833.
G2 X820.138 Z-18. I0.318 K0. F2500.
G1 X820.456
G17 G3 X820.773 Y1780.989 I0. J0.318
G1 Y1822.503
G2 X821.238 Y1823.626 I1.588 J0.
G3 X819.241 Y1825.623 I-0.999 J0.999
G2 X818.118 Y1825.158 I-1.122 J1.122
G1 X808.603
G2 X807.481 Y1825.623 I0. J1.587
G3 X805.483 Y1823.626 I-0.999 J-0.999
G2 X805.948 Y1822.503 I-1.123 J-1.122
G1 Y1780.989
G2 X805.483 Y1779.866 I-1.588 J0.
G3 X807.481 Y1777.868 I0.999 J-0.999
G2 X808.603 Y1778.333 I1.122 J-1.123
G1 X818.118
G2 X819.241 Y1777.868 I0. J-1.588
G3 X821.238 Y1779.866 I0.999 J0.999
G2 X820.773 Y1780.989 I1.123 J1.123
G3 X820.456 Y1781.306 I-0.318 J0.
G1 X820.138
G18 G3 X819.821 Z-17.683 I0. K0.317
G0 Z5.
Y2079.622
G1 Z2. F833.
Z-2.683
G2 X820.138 Z-3. I0.318 K0. F2500.
G1 X820.456
G17 G3 X820.773 Y2079.939 I0. J0.317
G1 Y2121.454
G2 X821.238 Y2122.576 I1.588 J0.
G3 X819.241 Y2124.574 I-0.999 J0.999
G2 X818.118 Y2124.109 I-1.122 J1.123
G1 X808.603
G2 X807.481 Y2124.574 I0. J1.587
G3 X805.483 Y2122.576 I-0.999 J-0.999
G2 X805.948 Y2121.454 I-1.123 J-1.122
G1 Y2079.939
G2 X805.483 Y2078.817 I-1.588 J0.
G3 X807.481 Y2076.819 I0.999 J-0.999
G2 X808.603 Y2077.284 I1.122 J-1.123
G1 X818.118
G2 X819.241 Y2076.819 I0. J-1.588
G3 X821.238 Y2078.817 I0.999 J0.999
G2 X820.773 Y2079.939 I1.123 J1.123
G3 X820.456 Y2080.257 I-0.318 J0.
G1 X820.138
G18 G3 X819.821 Z-2.683 I0. K0.318
G1 Y2079.622
Z-5.683 F833.
G2 X820.138 Z-6. I0.318 K0. F2500.
G1 X820.456
G17 G3 X820.773 Y2079.939 I0. J0.317
G1 Y2121.454
G2 X821.238 Y2122.576 I1.588 J0.
G3 X819.241 Y2124.574 I-0.999 J0.999
G2 X818.118 Y2124.109 I-1.122 J1.123
G1 X808.603
G2 X807.481 Y2124.574 I0. J1.587
G3 X805.483 Y2122.576 I-0.999 J-0.999
G2 X805.948 Y2121.454 I-1.123 J-1.122
G1 Y2079.939
G2 X805.483 Y2078.817 I-1.588 J0.
G3 X807.481 Y2076.819 I0.999 J-0.999
G2 X808.603 Y2077.284 I1.122 J-1.123
G1 X818.118
G2 X819.241 Y2076.819 I0. J-1.588
G3 X821.238 Y2078.817 I0.999 J0.999
G2 X820.773 Y2079.939 I1.123 J1.123
G3 X820.456 Y2080.257 I-0.318 J0.
G1 X820.138
G18 G3 X819.821 Z-5.683 I0. K0.318
G1 Y2079.622
Z-8.683 F833.
G2 X820.138 Z-9. I0.318 K0. F2500.
G1 X820.456
G17 G3 X820.773 Y2079.939 I0. J0.317
G1 Y2121.454
G2 X821.238 Y2122.576 I1.588 J0.
G3 X819.241 Y2124.574 I-0.999 J0.999
G2 X818.118 Y2124.109 I-1.122 J1.123
G1 X808.603
G2 X807.481 Y2124.574 I0. J1.587
G3 X805.483 Y2122.576 I-0.999 J-0.999
G2 X805.948 Y2121.454 I-1.123 J-1.122
G1 Y2079.939
G2 X805.483 Y2078.817 I-1.588 J0.
G3 X807.481 Y2076.819 I0.999 J-0.999
G2 X808.603 Y2077.284 I1.122 J-1.123
G1 X818.118
G2 X819.241 Y2076.819 I0. J-1.588
G3 X821.238 Y2078.817 I0.999 J0.999
G2 X820.773 Y2079.939 I1.123 J1.123
G3 X820.456 Y2080.257 I-0.318 J0.
G1 X820.138
G18 G3 X819.821 Z-8.683 I0. K0.318
G1 Y2079.622
Z-11.683 F833.
G2 X820.138 Z-12. I0.318 K0. F2500.
G1 X820.456
G17 G3 X820.773 Y2079.939 I0. J0.317
G1 Y2121.454
G2 X821.238 Y2122.576 I1.588 J0.
G3 X819.241 Y2124.574 I-0.999 J0.999
G2 X818.118 Y2124.109 I-1.122 J1.123
G1 X808.603
G2 X807.481 Y2124.574 I0. J1.587
G3 X805.483 Y2122.576 I-0.999 J-0.999
G2 X805.948 Y2121.454 I-1.123 J-1.122
G1 Y2079.939
G2 X805.483 Y2078.817 I-1.588 J0.
G3 X807.481 Y2076.819 I0.999 J-0.999
G2 X808.603 Y2077.284 I1.122 J-1.123
G1 X818.118
G2 X819.241 Y2076.819 I0. J-1.588
G3 X821.238 Y2078.817 I0.999 J0.999
G2 X820.773 Y2079.939 I1.123 J1.123
G3 X820.456 Y2080.257 I-0.318 J0.
G1 X820.138
G18 G3 X819.821 Z-11.683 I0. K0.318
G1 Y2079.622
Z-14.683 F833.
G2 X820.138 Z-15. I0.318 K0. F2500.
G1 X820.456
G17 G3 X820.773 Y2079.939 I0. J0.317
G1 Y2121.454
G2 X821.238 Y2122.576 I1.588 J0.
G3 X819.241 Y2124.574 I-0.999 J0.999
G2 X818.118 Y2124.109 I-1.122 J1.123
G1 X808.603
G2 X807.481 Y2124.574 I0. J1.587
G3 X805.483 Y2122.576 I-0.999 J-0.999
G2 X805.948 Y2121.454 I-1.123 J-1.122
G1 Y2079.939
G2 X805.483 Y2078.817 I-1.588 J0.
G3 X807.481 Y2076.819 I0.999 J-0.999
G2 X808.603 Y2077.284 I1.122 J-1.123
G1 X818.118
G2 X819.241 Y2076.819 I0. J-1.588
G3 X821.238 Y2078.817 I0.999 J0.999
G2 X820.773 Y2079.939 I1.123 J1.123
G3 X820.456 Y2080.257 I-0.318 J0.
G1 X820.138
G18 G3 X819.821 Z-14.683 I0. K0.318
G1 Y2079.622
Z-17.683 F833.
G2 X820.138 Z-18. I0.318 K0. F2500.
G1 X820.456
G17 G3 X820.773 Y2079.939 I0. J0.317
G1 Y2121.454
G2 X821.238 Y2122.576 I1.588 J0.
G3 X819.241 Y2124.574 I-0.999 J0.999
G2 X818.118 Y2124.109 I-1.122 J1.123
G1 X808.603
G2 X807.481 Y2124.574 I0. J1.587
G3 X805.483 Y2122.576 I-0.999 J-0.999
G2 X805.948 Y2121.454 I-1.123 J-1.122
G1 Y2079.939
G2 X805.483 Y2078.817 I-1.588 J0.
G3 X807.481 Y2076.819 I0.999 J-0.999
G2 X808.603 Y2077.284 I1.122 J-1.123
G1 X818.118
G2 X819.241 Y2076.819 I0. J-1.588
G3 X821.238 Y2078.817 I0.999 J0.999
G2 X820.773 Y2079.939 I1.123 J1.123
G3 X820.456 Y2080.257 I-0.318 J0.
G1 X820.138
G18 G3 X819.821 Z-17.683 I0. K0.317
G0 Z5.
X672.718 Y2311.437
G1 Z2. F833.
Z-2.683
G19 G2 Y2311.12 Z-3. J-0.317 K0. F2500.
G1 Y2310.802
G17 G3 X673.036 Y2310.485 I0.318 J0.
G1 X689.793
G2 X690.916 Y2310.02 I0. J-1.587
G3 X692.913 Y2312.018 I0.999 J0.999
G2 X692.448 Y2313.14 I1.122 J1.122
G1 Y2322.655
G2 X692.913 Y2323.777 I1.587 J0.
G3 X690.916 Y2325.775 I-0.999 J0.999
G2 X689.793 Y2325.31 I-1.122 J1.123
G1 X668.278
G2 X667.156 Y2325.775 I0. J1.588
G3 X665.158 Y2323.777 I-0.999 J-0.999
G2 X665.623 Y2322.655 I-1.123 J-1.123
G1 Y2313.14
G2 X665.158 Y2312.018 I-1.588 J0.
G3 X667.156 Y2310.02 I0.999 J-0.999
G2 X668.278 Y2310.485 I1.123 J-1.122
G1 X673.036
G3 X673.353 Y2310.802 I0. J0.317
G1 Y2311.12
G19 G3 Y2311.437 Z-2.683 J0. K0.318
G1 X672.718
Z-5.683 F833.
G2 Y2311.12 Z-6. J-0.317 K0. F2500.
G1 Y2310.802
G17 G3 X673.036 Y2310.485 I0.318 J0.
G1 X689.793
G2 X690.916 Y2310.02 I0. J-1.587
G3 X692.913 Y2312.018 I0.999 J0.999
G2 X692.448 Y2313.14 I1.122 J1.122
G1 Y2322.655
G2 X692.913 Y2323.777 I1.587 J0.
G3 X690.916 Y2325.775 I-0.999 J0.999
G2 X689.793 Y2325.31 I-1.122 J1.123
G1 X668.278
G2 X667.156 Y2325.775 I0. J1.588
G3 X665.158 Y2323.777 I-0.999 J-0.999
G2 X665.623 Y2322.655 I-1.123 J-1.123
G1 Y2313.14
G2 X665.158 Y2312.018 I-1.588 J0.
G3 X667.156 Y2310.02 I0.999 J-0.999
G2 X668.278 Y2310.485 I1.123 J-1.122
G1 X673.036
G3 X673.353 Y2310.802 I0. J0.317
G1 Y2311.12
G19 G3 Y2311.437 Z-5.683 J0. K0.318
G1 X672.718
Z-8.683 F833.
G2 Y2311.12 Z-9. J-0.317 K0. F2500.
G1 Y2310.802
G17 G3 X673.036 Y2310.485 I0.318 J0.
G1 X689.793
G2 X690.916 Y2310.02 I0. J-1.587
G3 X692.913 Y2312.018 I0.999 J0.999
G2 X692.448 Y2313.14 I1.122 J1.122
G1 Y2322.655
G2 X692.913 Y2323.777 I1.587 J0.
G3 X690.916 Y2325.775 I-0.999 J0.999
G2 X689.793 Y2325.31 I-1.122 J1.123
G1 X668.278
G2 X667.156 Y2325.775 I0. J1.588
G3 X665.158 Y2323.777 I-0.999 J-0.999
G2 X665.623 Y2322.655 I-1.123 J-1.123
G1 Y2313.14
G2 X665.158 Y2312.018 I-1.588 J0.
G3 X667.156 Y2310.02 I0.999 J-0.999
G2 X668.278 Y2310.485 I1.123 J-1.122
G1 X673.036
G3 X673.353 Y2310.802 I0. J0.317
G1 Y2311.12
G19 G3 Y2311.437 Z-8.683 J0. K0.318
G1 X672.718
Z-11.683 F833.
G2 Y2311.12 Z-12. J-0.317 K0. F2500.
G1 Y2310.802
G17 G3 X673.036 Y2310.485 I0.318 J0.
G1 X689.793
G2 X690.916 Y2310.02 I0. J-1.587
G3 X692.913 Y2312.018 I0.999 J0.999
G2 X692.448 Y2313.14 I1.122 J1.122
G1 Y2322.655
G2 X692.913 Y2323.777 I1.587 J0.
G3 X690.916 Y2325.775 I-0.999 J0.999
G2 X689.793 Y2325.31 I-1.122 J1.123
G1 X668.278
G2 X667.156 Y2325.775 I0. J1.588
G3 X665.158 Y2323.777 I-0.999 J-0.999
G2 X665.623 Y2322.655 I-1.123 J-1.123
G1 Y2313.14
G2 X665.158 Y2312.018 I-1.588 J0.
G3 X667.156 Y2310.02 I0.999 J-0.999
G2 X668.278 Y2310.485 I1.123 J-1.122
G1 X673.036
G3 X673.353 Y2310.802 I0. J0.317
G1 Y2311.12
G19 G3 Y2311.437 Z-11.683 J0. K0.318
G1 X672.718
Z-14.683 F833.
G2 Y2311.12 Z-15. J-0.317 K0. F2500.
G1 Y2310.802
G17 G3 X673.036 Y2310.485 I0.318 J0.
G1 X689.793
G2 X690.916 Y2310.02 I0. J-1.587
G3 X692.913 Y2312.018 I0.999 J0.999
G2 X692.448 Y2313.14 I1.122 J1.122
G1 Y2322.655
G2 X692.913 Y2323.777 I1.587 J0.
G3 X690.916 Y2325.775 I-0.999 J0.999
G2 X689.793 Y2325.31 I-1.122 J1.123
G1 X668.278
G2 X667.156 Y2325.775 I0. J1.588
G3 X665.158 Y2323.777 I-0.999 J-0.999
G2 X665.623 Y2322.655 I-1.123 J-1.123
G1 Y2313.14
G2 X665.158 Y2312.018 I-1.588 J0.
G3 X667.156 Y2310.02 I0.999 J-0.999
G2 X668.278 Y2310.485 I1.123 J-1.122
G1 X673.036
G3 X673.353 Y2310.802 I0. J0.317
G1 Y2311.12
G19 G3 Y2311.437 Z-14.683 J0. K0.318
G1 X672.718
Z-17.683 F833.
G2 Y2311.12 Z-18. J-0.317 K0. F2500.
G1 Y2310.802
G17 G3 X673.036 Y2310.485 I0.318 J0.
G1 X689.793
G2 X690.916 Y2310.02 I0. J-1.587
G3 X692.913 Y2312.018 I0.999 J0.999
G2 X692.448 Y2313.14 I1.122 J1.122
G1 Y2322.655
G2 X692.913 Y2323.777 I1.587 J0.
G3 X690.916 Y2325.775 I-0.999 J0.999
G2 X689.793 Y2325.31 I-1.122 J1.123
G1 X668.278
G2 X667.156 Y2325.775 I0. J1.588
G3 X665.158 Y2323.777 I-0.999 J-0.999
G2 X665.623 Y2322.655 I-1.123 J-1.123
G1 Y2313.14
G2 X665.158 Y2312.018 I-1.588 J0.
G3 X667.156 Y2310.02 I0.999 J-0.999
G2 X668.278 Y2310.485 I1.123 J-1.122
G1 X673.036
G3 X673.353 Y2310.802 I0. J0.317
G1 Y2311.12
G19 G3 Y2311.437 Z-17.683 J0. K0.317
G0 Z5.
X760.271 Y2366.357
G1 Z2. F833.
Z-2.683
G3 Y2366.675 Z-3. J0.317 K0. F2500.
G1 Y2366.992
G17 G3 X759.953 Y2367.31 I-0.318 J0.
G2 X758.831 Y2367.775 I0. J1.588
G3 X756.833 Y2365.777 I-0.999 J-0.999
G2 X757.298 Y2364.655 I-1.123 J-1.123
G1 Y2343.14
G2 X756.833 Y2342.018 I-1.588 J0.
G3 X758.831 Y2340.02 I0.999 J-0.999
G2 X759.953 Y2340.485 I1.123 J-1.122
G1 X769.468
G2 X770.591 Y2340.02 I0. J-1.587
G3 X772.588 Y2342.018 I0.999 J0.999
G2 X772.123 Y2343.14 I1.122 J1.122
G1 Y2364.655
G2 X772.588 Y2365.777 I1.587 J0.
G3 Y2367.775 I-0.999 J0.999
X770.591 I-0.999 J-0.999
G2 X769.468 Y2367.31 I-1.122 J1.123
G1 X759.953
G3 X759.636 Y2366.992 I0. J-0.317
G1 Y2366.675
G19 G2 Y2366.357 Z-2.683 J0. K0.318
G1 X760.271
Z-5.683 F833.
G3 Y2366.675 Z-6. J0.317 K0. F2500.
G1 Y2366.992
G17 G3 X759.953 Y2367.31 I-0.318 J0.
G2 X758.831 Y2367.775 I0. J1.588
G3 X756.833 Y2365.777 I-0.999 J-0.999
G2 X757.298 Y2364.655 I-1.123 J-1.123
G1 Y2343.14
G2 X756.833 Y2342.018 I-1.588 J0.
G3 X758.831 Y2340.02 I0.999 J-0.999
G2 X759.953 Y2340.485 I1.123 J-1.122
G1 X769.468
G2 X770.591 Y2340.02 I0. J-1.587
G3 X772.588 Y2342.018 I0.999 J0.999
G2 X772.123 Y2343.14 I1.122 J1.122
G1 Y2364.655
G2 X772.588 Y2365.777 I1.587 J0.
G3 Y2367.775 I-0.999 J0.999
X770.591 I-0.999 J-0.999
G2 X769.468 Y2367.31 I-1.122 J1.123
G1 X759.953
G3 X759.636 Y2366.992 I0. J-0.317
G1 Y2366.675
G19 G2 Y2366.357 Z-5.683 J0. K0.318
G1 X760.271
Z-8.683 F833.
G3 Y2366.675 Z-9. J0.317 K0. F2500.
G1 Y2366.992
G17 G3 X759.953 Y2367.31 I-0.318 J0.
G2 X758.831 Y2367.775 I0. J1.588
G3 X756.833 Y2365.777 I-0.999 J-0.999
G2 X757.298 Y2364.655 I-1.123 J-1.123
G1 Y2343.14
G2 X756.833 Y2342.018 I-1.588 J0.
G3 X758.831 Y2340.02 I0.999 J-0.999
G2 X759.953 Y2340.485 I1.123 J-1.122
G1 X769.468
G2 X770.591 Y2340.02 I0. J-1.587
G3 X772.588 Y2342.018 I0.999 J0.999
G2 X772.123 Y2343.14 I1.122 J1.122
G1 Y2364.655
G2 X772.588 Y2365.777 I1.587 J0.
G3 Y2367.775 I-0.999 J0.999
X770.591 I-0.999 J-0.999
G2 X769.468 Y2367.31 I-1.122 J1.123
G1 X759.953
G3 X759.636 Y2366.992 I0. J-0.317
G1 Y2366.675
G19 G2 Y2366.357 Z-8.683 J0. K0.318
G1 X760.271
Z-11.683 F833.
G3 Y2366.675 Z-12. J0.317 K0. F2500.
G1 Y2366.992
G17 G3 X759.953 Y2367.31 I-0.318 J0.
G2 X758.831 Y2367.775 I0. J1.588
G3 X756.833 Y2365.777 I-0.999 J-0.999
G2 X757.298 Y2364.655 I-1.123 J-1.123
G1 Y2343.14
G2 X756.833 Y2342.018 I-1.588 J0.
G3 X758.831 Y2340.02 I0.999 J-0.999
G2 X759.953 Y2340.485 I1.123 J-1.122
G1 X769.468
G2 X770.591 Y2340.02 I0. J-1.587
G3 X772.588 Y2342.018 I0.999 J0.999
G2 X772.123 Y2343.14 I1.122 J1.122
G1 Y2364.655
G2 X772.588 Y2365.777 I1.587 J0.
G3 Y2367.775 I-0.999 J0.999
X770.591 I-0.999 J-0.999
G2 X769.468 Y2367.31 I-1.122 J1.123
G1 X759.953
G3 X759.636 Y2366.992 I0. J-0.317
G1 Y2366.675
G19 G2 Y2366.357 Z-11.683 J0. K0.318
G1 X760.271
Z-14.683 F833.
G3 Y2366.675 Z-15. J0.317 K0. F2500.
G1 Y2366.992
G17 G3 X759.953 Y2367.31 I-0.318 J0.
G2 X758.831 Y2367.775 I0. J1.588
G3 X756.833 Y2365.777 I-0.999 J-0.999
G2 X757.298 Y2364.655 I-1.123 J-1.123
G1 Y2343.14
G2 X756.833 Y2342.018 I-1.588 J0.
G3 X758.831 Y2340.02 I0.999 J-0.999
G2 X759.953 Y2340.485 I1.123 J-1.122
G1 X769.468
G2 X770.591 Y2340.02 I0. J-1.587
G3 X772.588 Y2342.018 I0.999 J0.999
G2 X772.123 Y2343.14 I1.122 J1.122
G1 Y2364.655
G2 X772.588 Y2365.777 I1.587 J0.
G3 Y2367.775 I-0.999 J0.999
X770.591 I-0.999 J-0.999
G2 X769.468 Y2367.31 I-1.122 J1.123
G1 X759.953
G3 X759.636 Y2366.992 I0. J-0.317
G1 Y2366.675
G19 G2 Y2366.357 Z-14.683 J0. K0.318
G1 X760.271
Z-17.683 F833.
G3 Y2366.675 Z-18. J0.317 K0. F2500.
G1 Y2366.992
G17 G3 X759.953 Y2367.31 I-0.318 J0.
G2 X758.831 Y2367.775 I0. J1.588
G3 X756.833 Y2365.777 I-0.999 J-0.999
G2 X757.298 Y2364.655 I-1.123 J-1.123
G1 Y2343.14
G2 X756.833 Y2342.018 I-1.588 J0.
G3 X758.831 Y2340.02 I0.999 J-0.999
G2 X759.953 Y2340.485 I1.123 J-1.122
G1 X769.468
G2 X770.591 Y2340.02 I0. J-1.587
G3 X772.588 Y2342.018 I0.999 J0.999
G2 X772.123 Y2343.14 I1.122 J1.122
G1 Y2364.655
G2 X772.588 Y2365.777 I1.587 J0.
G3 Y2367.775 I-0.999 J0.999
X770.591 I-0.999 J-0.999
G2 X769.468 Y2367.31 I-1.122 J1.123
G1 X759.953
G3 X759.636 Y2366.992 I0. J-0.317
G1 Y2366.675
G19 G2 Y2366.357 Z-17.683 J0. K0.317
G0 Z5.
X819.821 Y2383.33
G1 Z2. F833.
Z-2.683
G18 G2 X820.138 Z-3. I0.318 K0. F2500.
G1 X820.456
G17 G3 X820.773 Y2383.647 I0. J0.318
G1 Y2420.405
G2 X821.238 Y2421.527 I1.588 J0.
G3 X819.241 Y2423.525 I-0.999 J0.999
G2 X818.118 Y2423.06 I-1.122 J1.123
G1 X808.603
G2 X807.481 Y2423.525 I0. J1.588
G3 X805.483 Y2421.527 I-0.999 J-0.999
G2 X805.948 Y2420.405 I-1.123 J-1.123
G1 Y2378.89
G2 X805.483 Y2377.768 I-1.588 J0.
G3 X807.481 Y2375.77 I0.999 J-0.999
G2 X808.603 Y2376.235 I1.122 J-1.122
G1 X818.118
G2 X819.241 Y2375.77 I0. J-1.587
G3 X821.238 Y2377.768 I0.999 J0.999
G2 X820.773 Y2378.89 I1.123 J1.122
G1 Y2383.647
G3 X820.456 Y2383.965 I-0.318 J0.
G1 X820.138
G18 G3 X819.821 Z-2.683 I0. K0.318
G1 Y2383.33
Z-5.683 F833.
G2 X820.138 Z-6. I0.318 K0. F2500.
G1 X820.456
G17 G3 X820.773 Y2383.647 I0. J0.318
G1 Y2420.405
G2 X821.238 Y2421.527 I1.588 J0.
G3 X819.241 Y2423.525 I-0.999 J0.999
G2 X818.118 Y2423.06 I-1.122 J1.123
G1 X808.603
G2 X807.481 Y2423.525 I0. J1.588
G3 X805.483 Y2421.527 I-0.999 J-0.999
G2 X805.948 Y2420.405 I-1.123 J-1.123
G1 Y2378.89
G2 X805.483 Y2377.768 I-1.588 J0.
G3 X807.481 Y2375.77 I0.999 J-0.999
G2 X808.603 Y2376.235 I1.122 J-1.122
G1 X818.118
G2 X819.241 Y2375.77 I0. J-1.587
G3 X821.238 Y2377.768 I0.999 J0.999
G2 X820.773 Y2378.89 I1.123 J1.122
G1 Y2383.647
G3 X820.456 Y2383.965 I-0.318 J0.
G1 X820.138
G18 G3 X819.821 Z-5.683 I0. K0.318
G1 Y2383.33
Z-8.683 F833.
G2 X820.138 Z-9. I0.318 K0. F2500.
G1 X820.456
G17 G3 X820.773 Y2383.647 I0. J0.318
G1 Y2420.405
G2 X821.238 Y2421.527 I1.588 J0.
G3 X819.241 Y2423.525 I-0.999 J0.999
G2 X818.118 Y2423.06 I-1.122 J1.123
G1 X808.603
G2 X807.481 Y2423.525 I0. J1.588
G3 X805.483 Y2421.527 I-0.999 J-0.999
G2 X805.948 Y2420.405 I-1.123 J-1.123
G1 Y2378.89
G2 X805.483 Y2377.768 I-1.588 J0.
G3 X807.481 Y2375.77 I0.999 J-0.999
G2 X808.603 Y2376.235 I1.122 J-1.122
G1 X818.118
G2 X819.241 Y2375.77 I0. J-1.587
G3 X821.238 Y2377.768 I0.999 J0.999
G2 X820.773 Y2378.89 I1.123 J1.122
G1 Y2383.647
G3 X820.456 Y2383.965 I-0.318 J0.
G1 X820.138
G18 G3 X819.821 Z-8.683 I0. K0.318
G1 Y2383.33
Z-11.683 F833.
G2 X820.138 Z-12. I0.318 K0. F2500.
G1 X820.456
G17 G3 X820.773 Y2383.647 I0. J0.318
G1 Y2420.405
G2 X821.238 Y2421.527 I1.588 J0.
G3 X819.241 Y2423.525 I-0.999 J0.999
G2 X818.118 Y2423.06 I-1.122 J1.123
G1 X808.603
G2 X807.481 Y2423.525 I0. J1.588
G3 X805.483 Y2421.527 I-0.999 J-0.999
G2 X805.948 Y2420.405 I-1.123 J-1.123
G1 Y2378.89
G2 X805.483 Y2377.768 I-1.588 J0.
G3 X807.481 Y2375.77 I0.999 J-0.999
G2 X808.603 Y2376.235 I1.122 J-1.122
G1 X818.118
G2 X819.241 Y2375.77 I0. J-1.587
G3 X821.238 Y2377.768 I0.999 J0.999
G2 X820.773 Y2378.89 I1.123 J1.122
G1 Y2383.647
G3 X820.456 Y2383.965 I-0.318 J0.
G1 X820.138
G18 G3 X819.821 Z-11.683 I0. K0.318
G1 Y2383.33
Z-14.683 F833.
G2 X820.138 Z-15. I0.318 K0. F2500.
G1 X820.456
G17 G3 X820.773 Y2383.647 I0. J0.318
G1 Y2420.405
G2 X821.238 Y2421.527 I1.588 J0.
G3 X819.241 Y2423.525 I-0.999 J0.999
G2 X818.118 Y2423.06 I-1.122 J1.123
G1 X808.603
G2 X807.481 Y2423.525 I0. J1.588
G3 X805.483 Y2421.527 I-0.999 J-0.999
G2 X805.948 Y2420.405 I-1.123 J-1.123
G1 Y2378.89
G2 X805.483 Y2377.768 I-1.588 J0.
G3 X807.481 Y2375.77 I0.999 J-0.999
G2 X808.603 Y2376.235 I1.122 J-1.122
G1 X818.118
G2 X819.241 Y2375.77 I0. J-1.587
G3 X821.238 Y2377.768 I0.999 J0.999
G2 X820.773 Y2378.89 I1.123 J1.122
G1 Y2383.647
G3 X820.456 Y2383.965 I-0.318 J0.
G1 X820.138
G18 G3 X819.821 Z-14.683 I0. K0.318
G1 Y2383.33
Z-17.683 F833.
G2 X820.138 Z-18. I0.318 K0. F2500.
G1 X820.456
G17 G3 X820.773 Y2383.647 I0. J0.318
G1 Y2420.405
G2 X821.238 Y2421.527 I1.588 J0.
G3 X819.241 Y2423.525 I-0.999 J0.999
G2 X818.118 Y2423.06 I-1.122 J1.123
G1 X808.603
G2 X807.481 Y2423.525 I0. J1.588
G3 X805.483 Y2421.527 I-0.999 J-0.999
G2 X805.948 Y2420.405 I-1.123 J-1.123
G1 Y2378.89
G2 X805.483 Y2377.768 I-1.588 J0.
G3 X807.481 Y2375.77 I0.999 J-0.999
G2 X808.603 Y2376.235 I1.122 J-1.122
G1 X818.118
G2 X819.241 Y2375.77 I0. J-1.587
G3 X821.238 Y2377.768 I0.999 J0.999
G2 X820.773 Y2378.89 I1.123 J1.122
G1 Y2383.647
G3 X820.456 Y2383.965 I-0.318 J0.
G1 X820.138
G18 G3 X819.821 Z-17.683 I0. K0.317
G0 Z5.
X771.171 Y2516.573
G1 Z2. F833.
Z-2.683
G2 X771.488 Z-3. I0.318 K0. F2500.
G1 X771.806
G17 G3 X772.123 Y2516.89 I0. J0.317
G1 Y2538.405
G2 X772.588 Y2539.527 I1.587 J0.
G3 Y2541.525 I-0.999 J0.999
X770.591 I-0.999 J-0.999
G2 X769.468 Y2541.06 I-1.122 J1.123
G1 X759.953
G2 X758.831 Y2541.525 I0. J1.588
G3 X756.833 Y2539.527 I-0.999 J-0.999
G2 X757.298 Y2538.405 I-1.123 J-1.123
G1 Y2516.89
G2 X756.833 Y2515.768 I-1.588 J0.
G3 X758.831 Y2513.77 I0.999 J-0.999
G2 X759.953 Y2514.235 I1.123 J-1.122
G1 X769.468
G2 X770.591 Y2513.77 I0. J-1.587
G3 X772.588 Y2515.768 I0.999 J0.999
G2 X772.123 Y2516.89 I1.122 J1.122
G3 X771.806 Y2517.208 I-0.318 J0.
G1 X771.488
G18 G3 X771.171 Z-2.683 I0. K0.318
G1 Y2516.573
Z-5.683 F833.
G2 X771.488 Z-6. I0.318 K0. F2500.
G1 X771.806
G17 G3 X772.123 Y2516.89 I0. J0.317
G1 Y2538.405
G2 X772.588 Y2539.527 I1.587 J0.
G3 Y2541.525 I-0.999 J0.999
X770.591 I-0.999 J-0.999
G2 X769.468 Y2541.06 I-1.122 J1.123
G1 X759.953
G2 X758.831 Y2541.525 I0. J1.588
G3 X756.833 Y2539.527 I-0.999 J-0.999
G2 X757.298 Y2538.405 I-1.123 J-1.123
G1 Y2516.89
G2 X756.833 Y2515.768 I-1.588 J0.
G3 X758.831 Y2513.77 I0.999 J-0.999
G2 X759.953 Y2514.235 I1.123 J-1.122
G1 X769.468
G2 X770.591 Y2513.77 I0. J-1.587
G3 X772.588 Y2515.768 I0.999 J0.999
G2 X772.123 Y2516.89 I1.122 J1.122
G3 X771.806 Y2517.208 I-0.318 J0.
G1 X771.488
G18 G3 X771.171 Z-5.683 I0. K0.318
G1 Y2516.573
Z-8.683 F833.
G2 X771.488 Z-9. I0.318 K0. F2500.
G1 X771.806
G17 G3 X772.123 Y2516.89 I0. J0.317
G1 Y2538.405
G2 X772.588 Y2539.527 I1.587 J0.
G3 Y2541.525 I-0.999 J0.999
X770.591 I-0.999 J-0.999
G2 X769.468 Y2541.06 I-1.122 J1.123
G1 X759.953
G2 X758.831 Y2541.525 I0. J1.588
G3 X756.833 Y2539.527 I-0.999 J-0.999
G2 X757.298 Y2538.405 I-1.123 J-1.123
G1 Y2516.89
G2 X756.833 Y2515.768 I-1.588 J0.
G3 X758.831 Y2513.77 I0.999 J-0.999
G2 X759.953 Y2514.235 I1.123 J-1.122
G1 X769.468
G2 X770.591 Y2513.77 I0. J-1.587
G3 X772.588 Y2515.768 I0.999 J0.999
G2 X772.123 Y2516.89 I1.122 J1.122
G3 X771.806 Y2517.208 I-0.318 J0.
G1 X771.488
G18 G3 X771.171 Z-8.683 I0. K0.318
G1 Y2516.573
Z-11.683 F833.
G2 X771.488 Z-12. I0.318 K0. F2500.
G1 X771.806
G17 G3 X772.123 Y2516.89 I0. J0.317
G1 Y2538.405
G2 X772.588 Y2539.527 I1.587 J0.
G3 Y2541.525 I-0.999 J0.999
X770.591 I-0.999 J-0.999
G2 X769.468 Y2541.06 I-1.122 J1.123
G1 X759.953
G2 X758.831 Y2541.525 I0. J1.588
G3 X756.833 Y2539.527 I-0.999 J-0.999
G2 X757.298 Y2538.405 I-1.123 J-1.123
G1 Y2516.89
G2 X756.833 Y2515.768 I-1.588 J0.
G3 X758.831 Y2513.77 I0.999 J-0.999
G2 X759.953 Y2514.235 I1.123 J-1.122
G1 X769.468
G2 X770.591 Y2513.77 I0. J-1.587
G3 X772.588 Y2515.768 I0.999 J0.999
G2 X772.123 Y2516.89 I1.122 J1.122
G3 X771.806 Y2517.208 I-0.318 J0.
G1 X771.488
G18 G3 X771.171 Z-11.683 I0. K0.318
G1 Y2516.573
Z-14.683 F833.
G2 X771.488 Z-15. I0.318 K0. F2500.
G1 X771.806
G17 G3 X772.123 Y2516.89 I0. J0.317
G1 Y2538.405
G2 X772.588 Y2539.527 I1.587 J0.
G3 Y2541.525 I-0.999 J0.999
X770.591 I-0.999 J-0.999
G2 X769.468 Y2541.06 I-1.122 J1.123
G1 X759.953
G2 X758.831 Y2541.525 I0. J1.588
G3 X756.833 Y2539.527 I-0.999 J-0.999
G2 X757.298 Y2538.405 I-1.123 J-1.123
G1 Y2516.89
G2 X756.833 Y2515.768 I-1.588 J0.
G3 X758.831 Y2513.77 I0.999 J-0.999
G2 X759.953 Y2514.235 I1.123 J-1.122
G1 X769.468
G2 X770.591 Y2513.77 I0. J-1.587
G3 X772.588 Y2515.768 I0.999 J0.999
G2 X772.123 Y2516.89 I1.122 J1.122
G3 X771.806 Y2517.208 I-0.318 J0.
G1 X771.488
G18 G3 X771.171 Z-14.683 I0. K0.318
G1 Y2516.573
Z-17.683 F833.
G2 X771.488 Z-18. I0.318 K0. F2500.
G1 X771.806
G17 G3 X772.123 Y2516.89 I0. J0.317
G1 Y2538.405
G2 X772.588 Y2539.527 I1.587 J0.
G3 Y2541.525 I-0.999 J0.999
X770.591 I-0.999 J-0.999
G2 X769.468 Y2541.06 I-1.122 J1.123
G1 X759.953
G2 X758.831 Y2541.525 I0. J1.588
G3 X756.833 Y2539.527 I-0.999 J-0.999
G2 X757.298 Y2538.405 I-1.123 J-1.123
G1 Y2516.89
G2 X756.833 Y2515.768 I-1.588 J0.
G3 X758.831 Y2513.77 I0.999 J-0.999
G2 X759.953 Y2514.235 I1.123 J-1.122
G1 X769.468
G2 X770.591 Y2513.77 I0. J-1.587
G3 X772.588 Y2515.768 I0.999 J0.999
G2 X772.123 Y2516.89 I1.122 J1.122
G3 X771.806 Y2517.208 I-0.318 J0.
G1 X771.488
G18 G3 X771.171 Z-17.683 I0. K0.317
G0 Z5.
X412.821 Y2415.33
G1 Z2. F833.
Z-2.683
G2 X413.138 Z-3. I0.318 K0. F2500.
G1 X413.456
G17 G3 X413.773 Y2415.647 I0. J0.318
G1 Y2420.405
G2 X414.238 Y2421.527 I1.587 J0.
G3 X412.241 Y2423.525 I-0.999 J0.999
G2 X411.118 Y2423.06 I-1.123 J1.123
G1 X401.603
G2 X400.481 Y2423.525 I0. J1.588
G3 X398.483 I-0.999 J-0.999
Y2421.527 I0.999 J-0.999
G2 X398.948 Y2420.405 I-1.123 J-1.123
G1 Y2378.89
G2 X398.483 Y2377.768 I-1.587 J0.
G3 X400.481 Y2375.77 I0.999 J-0.999
G2 X401.603 Y2376.235 I1.123 J-1.122
G1 X411.118
G2 X412.241 Y2375.77 I0. J-1.587
G3 X414.238 Y2377.768 I0.999 J0.999
G2 X413.773 Y2378.89 I1.123 J1.122
G1 Y2415.647
G3 X413.456 Y2415.965 I-0.318 J0.
G1 X413.138
G18 G3 X412.821 Z-2.683 I0. K0.318
G1 Y2415.33
Z-5.683 F833.
G2 X413.138 Z-6. I0.318 K0. F2500.
G1 X413.456
G17 G3 X413.773 Y2415.647 I0. J0.318
G1 Y2420.405
G2 X414.238 Y2421.527 I1.587 J0.
G3 X412.241 Y2423.525 I-0.999 J0.999
G2 X411.118 Y2423.06 I-1.123 J1.123
G1 X401.603
G2 X400.481 Y2423.525 I0. J1.588
G3 X398.483 I-0.999 J-0.999
Y2421.527 I0.999 J-0.999
G2 X398.948 Y2420.405 I-1.123 J-1.123
G1 Y2378.89
G2 X398.483 Y2377.768 I-1.587 J0.
G3 X400.481 Y2375.77 I0.999 J-0.999
G2 X401.603 Y2376.235 I1.123 J-1.122
G1 X411.118
G2 X412.241 Y2375.77 I0. J-1.587
G3 X414.238 Y2377.768 I0.999 J0.999
G2 X413.773 Y2378.89 I1.123 J1.122
G1 Y2415.647
G3 X413.456 Y2415.965 I-0.318 J0.
G1 X413.138
G18 G3 X412.821 Z-5.683 I0. K0.318
G1 Y2415.33
Z-8.683 F833.
G2 X413.138 Z-9. I0.318 K0. F2500.
G1 X413.456
G17 G3 X413.773 Y2415.647 I0. J0.318
G1 Y2420.405
G2 X414.238 Y2421.527 I1.587 J0.
G3 X412.241 Y2423.525 I-0.999 J0.999
G2 X411.118 Y2423.06 I-1.123 J1.123
G1 X401.603
G2 X400.481 Y2423.525 I0. J1.588
G3 X398.483 I-0.999 J-0.999
Y2421.527 I0.999 J-0.999
G2 X398.948 Y2420.405 I-1.123 J-1.123
G1 Y2378.89
G2 X398.483 Y2377.768 I-1.587 J0.
G3 X400.481 Y2375.77 I0.999 J-0.999
G2 X401.603 Y2376.235 I1.123 J-1.122
G1 X411.118
G2 X412.241 Y2375.77 I0. J-1.587
G3 X414.238 Y2377.768 I0.999 J0.999
G2 X413.773 Y2378.89 I1.123 J1.122
G1 Y2415.647
G3 X413.456 Y2415.965 I-0.318 J0.
G1 X413.138
G18 G3 X412.821 Z-8.683 I0. K0.318
G1 Y2415.33
Z-11.683 F833.
G2 X413.138 Z-12. I0.318 K0. F2500.
G1 X413.456
G17 G3 X413.773 Y2415.647 I0. J0.318
G1 Y2420.405
G2 X414.238 Y2421.527 I1.587 J0.
G3 X412.241 Y2423.525 I-0.999 J0.999
G2 X411.118 Y2423.06 I-1.123 J1.123
G1 X401.603
G2 X400.481 Y2423.525 I0. J1.588
G3 X398.483 I-0.999 J-0.999
Y2421.527 I0.999 J-0.999
G2 X398.948 Y2420.405 I-1.123 J-1.123
G1 Y2378.89
G2 X398.483 Y2377.768 I-1.587 J0.
G3 X400.481 Y2375.77 I0.999 J-0.999
G2 X401.603 Y2376.235 I1.123 J-1.122
G1 X411.118
G2 X412.241 Y2375.77 I0. J-1.587
G3 X414.238 Y2377.768 I0.999 J0.999
G2 X413.773 Y2378.89 I1.123 J1.122
G1 Y2415.647
G3 X413.456 Y2415.965 I-0.318 J0.
G1 X413.138
G18 G3 X412.821 Z-11.683 I0. K0.318
G1 Y2415.33
Z-14.683 F833.
G2 X413.138 Z-15. I0.318 K0. F2500.
G1 X413.456
G17 G3 X413.773 Y2415.647 I0. J0.318
G1 Y2420.405
G2 X414.238 Y2421.527 I1.587 J0.
G3 X412.241 Y2423.525 I-0.999 J0.999
G2 X411.118 Y2423.06 I-1.123 J1.123
G1 X401.603
G2 X400.481 Y2423.525 I0. J1.588
G3 X398.483 I-0.999 J-0.999
Y2421.527 I0.999 J-0.999
G2 X398.948 Y2420.405 I-1.123 J-1.123
G1 Y2378.89
G2 X398.483 Y2377.768 I-1.587 J0.
G3 X400.481 Y2375.77 I0.999 J-0.999
G2 X401.603 Y2376.235 I1.123 J-1.122
G1 X411.118
G2 X412.241 Y2375.77 I0. J-1.587
G3 X414.238 Y2377.768 I0.999 J0.999
G2 X413.773 Y2378.89 I1.123 J1.122
G1 Y2415.647
G3 X413.456 Y2415.965 I-0.318 J0.
G1 X413.138
G18 G3 X412.821 Z-14.683 I0. K0.318
G1 Y2415.33
Z-17.683 F833.
G2 X413.138 Z-18. I0.318 K0. F2500.
G1 X413.456
G17 G3 X413.773 Y2415.647 I0. J0.318
G1 Y2420.405
G2 X414.238 Y2421.527 I1.587 J0.
G3 X412.241 Y2423.525 I-0.999 J0.999
G2 X411.118 Y2423.06 I-1.123 J1.123
G1 X401.603
G2 X400.481 Y2423.525 I0. J1.588
G3 X398.483 I-0.999 J-0.999
Y2421.527 I0.999 J-0.999
G2 X398.948 Y2420.405 I-1.123 J-1.123
G1 Y2378.89
G2 X398.483 Y2377.768 I-1.587 J0.
G3 X400.481 Y2375.77 I0.999 J-0.999
G2 X401.603 Y2376.235 I1.123 J-1.122
G1 X411.118
G2 X412.241 Y2375.77 I0. J-1.587
G3 X414.238 Y2377.768 I0.999 J0.999
G2 X413.773 Y2378.89 I1.123 J1.122
G1 Y2415.647
G3 X413.456 Y2415.965 I-0.318 J0.
G1 X413.138
G18 G3 X412.821 Z-17.683 I0. K0.317
G0 Z5.
X364.171 Y2347.58
G1 Z2. F833.
Z-2.683
G2 X364.488 Z-3. I0.318 K0. F2500.
G1 X364.806
G17 G3 X365.123 Y2347.897 I0. J0.318
G1 Y2364.655
G2 X365.588 Y2365.777 I1.587 J0.
G3 X363.591 Y2367.775 I-0.999 J0.999
G2 X362.468 Y2367.31 I-1.123 J1.123
G1 X352.953
G2 X351.831 Y2367.775 I0. J1.588
G3 X349.833 Y2365.777 I-0.999 J-0.999
G2 X350.298 Y2364.655 I-1.123 J-1.123
G1 Y2343.14
G2 X349.833 Y2342.018 I-1.587 J0.
G3 X351.831 Y2340.02 I0.999 J-0.999
G2 X352.953 Y2340.485 I1.123 J-1.122
G1 X362.468
G2 X363.591 Y2340.02 I0. J-1.587
G3 X365.588 Y2342.018 I0.999 J0.999
G2 X365.123 Y2343.14 I1.123 J1.122
G1 Y2347.897
G3 X364.806 Y2348.215 I-0.318 J0.
G1 X364.488
G18 G3 X364.171 Z-2.683 I0. K0.318
G1 Y2342.823
Z-5.683 F833.
G2 X364.488 Z-6. I0.318 K0. F2500.
G1 X364.806
G17 G3 X365.123 Y2343.14 I0. J0.317
G1 Y2364.655
G2 X365.588 Y2365.777 I1.587 J0.
G3 X363.591 Y2367.775 I-0.999 J0.999
G2 X362.468 Y2367.31 I-1.123 J1.123
G1 X352.953
G2 X351.831 Y2367.775 I0. J1.588
G3 X349.833 Y2365.777 I-0.999 J-0.999
G2 X350.298 Y2364.655 I-1.123 J-1.123
G1 Y2343.14
G2 X349.833 Y2342.018 I-1.587 J0.
G3 X351.831 Y2340.02 I0.999 J-0.999
G2 X352.953 Y2340.485 I1.123 J-1.122
G1 X362.468
G2 X363.591 Y2340.02 I0. J-1.587
G3 X365.588 Y2342.018 I0.999 J0.999
G2 X365.123 Y2343.14 I1.123 J1.122
G3 X364.806 Y2343.458 I-0.318 J0.
G1 X364.488
G18 G3 X364.171 Z-5.683 I0. K0.318
G1 Y2342.823
Z-8.683 F833.
G2 X364.488 Z-9. I0.318 K0. F2500.
G1 X364.806
G17 G3 X365.123 Y2343.14 I0. J0.317
G1 Y2364.655
G2 X365.588 Y2365.777 I1.587 J0.
G3 X363.591 Y2367.775 I-0.999 J0.999
G2 X362.468 Y2367.31 I-1.123 J1.123
G1 X352.953
G2 X351.831 Y2367.775 I0. J1.588
G3 X349.833 Y2365.777 I-0.999 J-0.999
G2 X350.298 Y2364.655 I-1.123 J-1.123
G1 Y2343.14
G2 X349.833 Y2342.018 I-1.587 J0.
G3 X351.831 Y2340.02 I0.999 J-0.999
G2 X352.953 Y2340.485 I1.123 J-1.122
G1 X362.468
G2 X363.591 Y2340.02 I0. J-1.587
G3 X365.588 Y2342.018 I0.999 J0.999
G2 X365.123 Y2343.14 I1.123 J1.122
G3 X364.806 Y2343.458 I-0.318 J0.
G1 X364.488
G18 G3 X364.171 Z-8.683 I0. K0.318
G1 Y2342.823
Z-11.683 F833.
G2 X364.488 Z-12. I0.318 K0. F2500.
G1 X364.806
G17 G3 X365.123 Y2343.14 I0. J0.317
G1 Y2364.655
G2 X365.588 Y2365.777 I1.587 J0.
G3 X363.591 Y2367.775 I-0.999 J0.999
G2 X362.468 Y2367.31 I-1.123 J1.123
G1 X352.953
G2 X351.831 Y2367.775 I0. J1.588
G3 X349.833 Y2365.777 I-0.999 J-0.999
G2 X350.298 Y2364.655 I-1.123 J-1.123
G1 Y2343.14
G2 X349.833 Y2342.018 I-1.587 J0.
G3 X351.831 Y2340.02 I0.999 J-0.999
G2 X352.953 Y2340.485 I1.123 J-1.122
G1 X362.468
G2 X363.591 Y2340.02 I0. J-1.587
G3 X365.588 Y2342.018 I0.999 J0.999
G2 X365.123 Y2343.14 I1.123 J1.122
G3 X364.806 Y2343.458 I-0.318 J0.
G1 X364.488
G18 G3 X364.171 Z-11.683 I0. K0.318
G1 Y2342.823
Z-14.683 F833.
G2 X364.488 Z-15. I0.318 K0. F2500.
G1 X364.806
G17 G3 X365.123 Y2343.14 I0. J0.317
G1 Y2364.655
G2 X365.588 Y2365.777 I1.587 J0.
G3 X363.591 Y2367.775 I-0.999 J0.999
G2 X362.468 Y2367.31 I-1.123 J1.123
G1 X352.953
G2 X351.831 Y2367.775 I0. J1.588
G3 X349.833 Y2365.777 I-0.999 J-0.999
G2 X350.298 Y2364.655 I-1.123 J-1.123
G1 Y2343.14
G2 X349.833 Y2342.018 I-1.587 J0.
G3 X351.831 Y2340.02 I0.999 J-0.999
G2 X352.953 Y2340.485 I1.123 J-1.122
G1 X362.468
G2 X363.591 Y2340.02 I0. J-1.587
G3 X365.588 Y2342.018 I0.999 J0.999
G2 X365.123 Y2343.14 I1.123 J1.122
G3 X364.806 Y2343.458 I-0.318 J0.
G1 X364.488
G18 G3 X364.171 Z-14.683 I0. K0.318
G1 Y2342.823
Z-17.683 F833.
G2 X364.488 Z-18. I0.318 K0. F2500.
G1 X364.806
G17 G3 X365.123 Y2343.14 I0. J0.317
G1 Y2364.655
G2 X365.588 Y2365.777 I1.587 J0.
G3 X363.591 Y2367.775 I-0.999 J0.999
G2 X362.468 Y2367.31 I-1.123 J1.123
G1 X352.953
G2 X351.831 Y2367.775 I0. J1.588
G3 X349.833 Y2365.777 I-0.999 J-0.999
G2 X350.298 Y2364.655 I-1.123 J-1.123
G1 Y2343.14
G2 X349.833 Y2342.018 I-1.587 J0.
G3 X351.831 Y2340.02 I0.999 J-0.999
G2 X352.953 Y2340.485 I1.123 J-1.122
G1 X362.468
G2 X363.591 Y2340.02 I0. J-1.587
G3 X365.588 Y2342.018 I0.999 J0.999
G2 X365.123 Y2343.14 I1.123 J1.122
G3 X364.806 Y2343.458 I-0.318 J0.
G1 X364.488
G18 G3 X364.171 Z-17.683 I0. K0.317
G0 Z5.
X284.496 Y2312.823
G1 Z2. F833.
Z-2.683
G2 X284.813 Z-3. I0.317 K0. F2500.
G1 X285.131
G17 G3 X285.448 Y2313.14 I0. J0.317
G1 Y2322.655
G2 X285.913 Y2323.777 I1.587 J0.
G3 X283.916 Y2325.775 I-0.999 J0.999
G2 X282.793 Y2325.31 I-1.123 J1.123
G1 X261.278
G2 X260.156 Y2325.775 I0. J1.588
G3 X258.158 Y2323.777 I-0.999 J-0.999
G2 X258.623 Y2322.655 I-1.123 J-1.123
G1 Y2313.14
G2 X258.158 Y2312.018 I-1.588 J0.
G3 X260.156 Y2310.02 I0.999 J-0.999
G2 X261.278 Y2310.485 I1.123 J-1.122
G1 X282.793
G2 X283.916 Y2310.02 I0. J-1.587
G3 X285.913 Y2312.018 I0.999 J0.999
G2 X285.448 Y2313.14 I1.123 J1.122
G3 X285.131 Y2313.458 I-0.318 J0.
G1 X284.813
G18 G3 X284.496 Z-2.683 I0. K0.318
G1 Y2312.823
Z-5.683 F833.
G2 X284.813 Z-6. I0.317 K0. F2500.
G1 X285.131
G17 G3 X285.448 Y2313.14 I0. J0.317
G1 Y2322.655
G2 X285.913 Y2323.777 I1.587 J0.
G3 X283.916 Y2325.775 I-0.999 J0.999
G2 X282.793 Y2325.31 I-1.123 J1.123
G1 X261.278
G2 X260.156 Y2325.775 I0. J1.588
G3 X258.158 Y2323.777 I-0.999 J-0.999
G2 X258.623 Y2322.655 I-1.123 J-1.123
G1 Y2313.14
G2 X258.158 Y2312.018 I-1.588 J0.
G3 X260.156 Y2310.02 I0.999 J-0.999
G2 X261.278 Y2310.485 I1.123 J-1.122
G1 X282.793
G2 X283.916 Y2310.02 I0. J-1.587
G3 X285.913 Y2312.018 I0.999 J0.999
G2 X285.448 Y2313.14 I1.123 J1.122
G3 X285.131 Y2313.458 I-0.318 J0.
G1 X284.813
G18 G3 X284.496 Z-5.683 I0. K0.318
G1 Y2312.823
Z-8.683 F833.
G2 X284.813 Z-9. I0.317 K0. F2500.
G1 X285.131
G17 G3 X285.448 Y2313.14 I0. J0.317
G1 Y2322.655
G2 X285.913 Y2323.777 I1.587 J0.
G3 X283.916 Y2325.775 I-0.999 J0.999
G2 X282.793 Y2325.31 I-1.123 J1.123
G1 X261.278
G2 X260.156 Y2325.775 I0. J1.588
G3 X258.158 Y2323.777 I-0.999 J-0.999
G2 X258.623 Y2322.655 I-1.123 J-1.123
G1 Y2313.14
G2 X258.158 Y2312.018 I-1.588 J0.
G3 X260.156 Y2310.02 I0.999 J-0.999
G2 X261.278 Y2310.485 I1.123 J-1.122
G1 X282.793
G2 X283.916 Y2310.02 I0. J-1.587
G3 X285.913 Y2312.018 I0.999 J0.999
G2 X285.448 Y2313.14 I1.123 J1.122
G3 X285.131 Y2313.458 I-0.318 J0.
G1 X284.813
G18 G3 X284.496 Z-8.683 I0. K0.318
G1 Y2312.823
Z-11.683 F833.
G2 X284.813 Z-12. I0.317 K0. F2500.
G1 X285.131
G17 G3 X285.448 Y2313.14 I0. J0.317
G1 Y2322.655
G2 X285.913 Y2323.777 I1.587 J0.
G3 X283.916 Y2325.775 I-0.999 J0.999
G2 X282.793 Y2325.31 I-1.123 J1.123
G1 X261.278
G2 X260.156 Y2325.775 I0. J1.588
G3 X258.158 Y2323.777 I-0.999 J-0.999
G2 X258.623 Y2322.655 I-1.123 J-1.123
G1 Y2313.14
G2 X258.158 Y2312.018 I-1.588 J0.
G3 X260.156 Y2310.02 I0.999 J-0.999
G2 X261.278 Y2310.485 I1.123 J-1.122
G1 X282.793
G2 X283.916 Y2310.02 I0. J-1.587
G3 X285.913 Y2312.018 I0.999 J0.999
G2 X285.448 Y2313.14 I1.123 J1.122
G3 X285.131 Y2313.458 I-0.318 J0.
G1 X284.813
G18 G3 X284.496 Z-11.683 I0. K0.318
G1 Y2312.823
Z-14.683 F833.
G2 X284.813 Z-15. I0.317 K0. F2500.
G1 X285.131
G17 G3 X285.448 Y2313.14 I0. J0.317
G1 Y2322.655
G2 X285.913 Y2323.777 I1.587 J0.
G3 X283.916 Y2325.775 I-0.999 J0.999
G2 X282.793 Y2325.31 I-1.123 J1.123
G1 X261.278
G2 X260.156 Y2325.775 I0. J1.588
G3 X258.158 Y2323.777 I-0.999 J-0.999
G2 X258.623 Y2322.655 I-1.123 J-1.123
G1 Y2313.14
G2 X258.158 Y2312.018 I-1.588 J0.
G3 X260.156 Y2310.02 I0.999 J-0.999
G2 X261.278 Y2310.485 I1.123 J-1.122
G1 X282.793
G2 X283.916 Y2310.02 I0. J-1.587
G3 X285.913 Y2312.018 I0.999 J0.999
G2 X285.448 Y2313.14 I1.123 J1.122
G3 X285.131 Y2313.458 I-0.318 J0.
G1 X284.813
G18 G3 X284.496 Z-14.683 I0. K0.318
G1 Y2312.823
Z-17.683 F833.
G2 X284.813 Z-18. I0.317 K0. F2500.
G1 X285.131
G17 G3 X285.448 Y2313.14 I0. J0.317
G1 Y2322.655
G2 X285.913 Y2323.777 I1.587 J0.
G3 X283.916 Y2325.775 I-0.999 J0.999
G2 X282.793 Y2325.31 I-1.123 J1.123
G1 X261.278
G2 X260.156 Y2325.775 I0. J1.588
G3 X258.158 Y2323.777 I-0.999 J-0.999
G2 X258.623 Y2322.655 I-1.123 J-1.123
G1 Y2313.14
G2 X258.158 Y2312.018 I-1.588 J0.
G3 X260.156 Y2310.02 I0.999 J-0.999
G2 X261.278 Y2310.485 I1.123 J-1.122
G1 X282.793
G2 X283.916 Y2310.02 I0. J-1.587
G3 X285.913 Y2312.018 I0.999 J0.999
G2 X285.448 Y2313.14 I1.123 J1.122
G3 X285.131 Y2313.458 I-0.318 J0.
G1 X284.813
G18 G3 X284.496 Z-17.683 I0. K0.317
G0 Z5.
X364.171 Y2533.33
G1 Z2. F833.
Z-2.683
G2 X364.488 Z-3. I0.318 K0. F2500.
G1 X364.806
G17 G3 X365.123 Y2533.647 I0. J0.318
G1 Y2538.405
G2 X365.588 Y2539.527 I1.587 J0.
G3 X363.591 Y2541.525 I-0.999 J0.999
G2 X362.468 Y2541.06 I-1.123 J1.123
G1 X352.953
G2 X351.831 Y2541.525 I0. J1.588
G3 X349.833 Y2539.527 I-0.999 J-0.999
G2 X350.298 Y2538.405 I-1.123 J-1.123
G1 Y2516.89
G2 X349.833 Y2515.768 I-1.587 J0.
G3 X351.831 Y2513.77 I0.999 J-0.999
G2 X352.953 Y2514.235 I1.123 J-1.122
G1 X362.468
G2 X363.591 Y2513.77 I0. J-1.587
G3 X365.588 Y2515.768 I0.999 J0.999
G2 X365.123 Y2516.89 I1.123 J1.122
G1 Y2533.647
G3 X364.806 Y2533.965 I-0.318 J0.
G1 X364.488
G18 G3 X364.171 Z-2.683 I0. K0.318
G1 Y2538.087
Z-5.683 F833.
G2 X364.488 Z-6. I0.318 K0. F2500.
G1 X364.806
G17 G3 X365.123 Y2538.405 I0. J0.318
G2 X365.588 Y2539.527 I1.587 J0.
G3 X363.591 Y2541.525 I-0.999 J0.999
G2 X362.468 Y2541.06 I-1.123 J1.123
G1 X352.953
G2 X351.831 Y2541.525 I0. J1.588
G3 X349.833 Y2539.527 I-0.999 J-0.999
G2 X350.298 Y2538.405 I-1.123 J-1.123
G1 Y2516.89
G2 X349.833 Y2515.768 I-1.587 J0.
G3 X351.831 Y2513.77 I0.999 J-0.999
G2 X352.953 Y2514.235 I1.123 J-1.122
G1 X362.468
G2 X363.591 Y2513.77 I0. J-1.587
G3 X365.588 Y2515.768 I0.999 J0.999
G2 X365.123 Y2516.89 I1.123 J1.122
G1 Y2538.405
G3 X364.806 Y2538.722 I-0.318 J0.
G1 X364.488
G18 G3 X364.171 Z-5.683 I0. K0.318
G1 Y2538.087
Z-8.683 F833.
G2 X364.488 Z-9. I0.318 K0. F2500.
G1 X364.806
G17 G3 X365.123 Y2538.405 I0. J0.318
G2 X365.588 Y2539.527 I1.587 J0.
G3 X363.591 Y2541.525 I-0.999 J0.999
G2 X362.468 Y2541.06 I-1.123 J1.123
G1 X352.953
G2 X351.831 Y2541.525 I0. J1.588
G3 X349.833 Y2539.527 I-0.999 J-0.999
G2 X350.298 Y2538.405 I-1.123 J-1.123
G1 Y2516.89
G2 X349.833 Y2515.768 I-1.587 J0.
G3 X351.831 Y2513.77 I0.999 J-0.999
G2 X352.953 Y2514.235 I1.123 J-1.122
G1 X362.468
G2 X363.591 Y2513.77 I0. J-1.587
G3 X365.588 Y2515.768 I0.999 J0.999
G2 X365.123 Y2516.89 I1.123 J1.122
G1 Y2538.405
G3 X364.806 Y2538.722 I-0.318 J0.
G1 X364.488
G18 G3 X364.171 Z-8.683 I0. K0.318
G1 Y2538.087
Z-11.683 F833.
G2 X364.488 Z-12. I0.318 K0. F2500.
G1 X364.806
G17 G3 X365.123 Y2538.405 I0. J0.318
G2 X365.588 Y2539.527 I1.587 J0.
G3 X363.591 Y2541.525 I-0.999 J0.999
G2 X362.468 Y2541.06 I-1.123 J1.123
G1 X352.953
G2 X351.831 Y2541.525 I0. J1.588
G3 X349.833 Y2539.527 I-0.999 J-0.999
G2 X350.298 Y2538.405 I-1.123 J-1.123
G1 Y2516.89
G2 X349.833 Y2515.768 I-1.587 J0.
G3 X351.831 Y2513.77 I0.999 J-0.999
G2 X352.953 Y2514.235 I1.123 J-1.122
G1 X362.468
G2 X363.591 Y2513.77 I0. J-1.587
G3 X365.588 Y2515.768 I0.999 J0.999
G2 X365.123 Y2516.89 I1.123 J1.122
G1 Y2538.405
G3 X364.806 Y2538.722 I-0.318 J0.
G1 X364.488
G18 G3 X364.171 Z-11.683 I0. K0.318
G1 Y2538.087
Z-14.683 F833.
G2 X364.488 Z-15. I0.318 K0. F2500.
G1 X364.806
G17 G3 X365.123 Y2538.405 I0. J0.318
G2 X365.588 Y2539.527 I1.587 J0.
G3 X363.591 Y2541.525 I-0.999 J0.999
G2 X362.468 Y2541.06 I-1.123 J1.123
G1 X352.953
G2 X351.831 Y2541.525 I0. J1.588
G3 X349.833 Y2539.527 I-0.999 J-0.999
G2 X350.298 Y2538.405 I-1.123 J-1.123
G1 Y2516.89
G2 X349.833 Y2515.768 I-1.587 J0.
G3 X351.831 Y2513.77 I0.999 J-0.999
G2 X352.953 Y2514.235 I1.123 J-1.122
G1 X362.468
G2 X363.591 Y2513.77 I0. J-1.587
G3 X365.588 Y2515.768 I0.999 J0.999
G2 X365.123 Y2516.89 I1.123 J1.122
G1 Y2538.405
G3 X364.806 Y2538.722 I-0.318 J0.
G1 X364.488
G18 G3 X364.171 Z-14.683 I0. K0.318
G1 Y2538.087
Z-17.683 F833.
G2 X364.488 Z-18. I0.318 K0. F2500.
G1 X364.806
G17 G3 X365.123 Y2538.405 I0. J0.318
G2 X365.588 Y2539.527 I1.587 J0.
G3 X363.591 Y2541.525 I-0.999 J0.999
G2 X362.468 Y2541.06 I-1.123 J1.123
G1 X352.953
G2 X351.831 Y2541.525 I0. J1.588
G3 X349.833 Y2539.527 I-0.999 J-0.999
G2 X350.298 Y2538.405 I-1.123 J-1.123
G1 Y2516.89
G2 X349.833 Y2515.768 I-1.587 J0.
G3 X351.831 Y2513.77 I0.999 J-0.999
G2 X352.953 Y2514.235 I1.123 J-1.122
G1 X362.468
G2 X363.591 Y2513.77 I0. J-1.587
G3 X365.588 Y2515.768 I0.999 J0.999
G2 X365.123 Y2516.89 I1.123 J1.122
G1 Y2538.405
G3 X364.806 Y2538.722 I-0.318 J0.
G1 X364.488
G18 G3 X364.171 Z-17.683 I0. K0.317
G0 Z5.
X412.821 Y2084.379
G1 Z2. F833.
Z-2.683
G2 X413.138 Z-3. I0.318 K0. F2500.
G1 X413.456
G17 G3 X413.773 Y2084.697 I0. J0.317
G1 Y2121.454
G2 X414.238 Y2122.576 I1.587 J0.
G3 X412.241 Y2124.574 I-0.999 J0.999
G2 X411.118 Y2124.109 I-1.123 J1.123
G1 X401.603
G2 X400.481 Y2124.574 I0. J1.587
G3 X398.483 I-0.999 J-0.999
Y2122.576 I0.999 J-0.999
G2 X398.948 Y2121.454 I-1.123 J-1.122
G1 Y2079.939
G2 X398.483 Y2078.817 I-1.587 J0.
G3 Y2076.819 I0.999 J-0.999
X400.481 I0.999 J0.999
G2 X401.603 Y2077.284 I1.123 J-1.123
G1 X411.118
G2 X412.241 Y2076.819 I0. J-1.588
G3 X414.238 Y2078.817 I0.999 J0.999
G2 X413.773 Y2079.939 I1.123 J1.123
G1 Y2084.697
G3 X413.456 Y2085.014 I-0.318 J0.
G1 X413.138
G18 G3 X412.821 Z-2.683 I0. K0.318
G1 Y2084.379
Z-5.683 F833.
G2 X413.138 Z-6. I0.318 K0. F2500.
G1 X413.456
G17 G3 X413.773 Y2084.697 I0. J0.317
G1 Y2121.454
G2 X414.238 Y2122.576 I1.587 J0.
G3 X412.241 Y2124.574 I-0.999 J0.999
G2 X411.118 Y2124.109 I-1.123 J1.123
G1 X401.603
G2 X400.481 Y2124.574 I0. J1.587
G3 X398.483 I-0.999 J-0.999
Y2122.576 I0.999 J-0.999
G2 X398.948 Y2121.454 I-1.123 J-1.122
G1 Y2079.939
G2 X398.483 Y2078.817 I-1.587 J0.
G3 Y2076.819 I0.999 J-0.999
X400.481 I0.999 J0.999
G2 X401.603 Y2077.284 I1.123 J-1.123
G1 X411.118
G2 X412.241 Y2076.819 I0. J-1.588
G3 X414.238 Y2078.817 I0.999 J0.999
G2 X413.773 Y2079.939 I1.123 J1.123
G1 Y2084.697
G3 X413.456 Y2085.014 I-0.318 J0.
G1 X413.138
G18 G3 X412.821 Z-5.683 I0. K0.318
G1 Y2084.379
Z-8.683 F833.
G2 X413.138 Z-9. I0.318 K0. F2500.
G1 X413.456
G17 G3 X413.773 Y2084.697 I0. J0.317
G1 Y2121.454
G2 X414.238 Y2122.576 I1.587 J0.
G3 X412.241 Y2124.574 I-0.999 J0.999
G2 X411.118 Y2124.109 I-1.123 J1.123
G1 X401.603
G2 X400.481 Y2124.574 I0. J1.587
G3 X398.483 I-0.999 J-0.999
Y2122.576 I0.999 J-0.999
G2 X398.948 Y2121.454 I-1.123 J-1.122
G1 Y2079.939
G2 X398.483 Y2078.817 I-1.587 J0.
G3 Y2076.819 I0.999 J-0.999
X400.481 I0.999 J0.999
G2 X401.603 Y2077.284 I1.123 J-1.123
G1 X411.118
G2 X412.241 Y2076.819 I0. J-1.588
G3 X414.238 Y2078.817 I0.999 J0.999
G2 X413.773 Y2079.939 I1.123 J1.123
G1 Y2084.697
G3 X413.456 Y2085.014 I-0.318 J0.
G1 X413.138
G18 G3 X412.821 Z-8.683 I0. K0.318
G1 Y2084.379
Z-11.683 F833.
G2 X413.138 Z-12. I0.318 K0. F2500.
G1 X413.456
G17 G3 X413.773 Y2084.697 I0. J0.317
G1 Y2121.454
G2 X414.238 Y2122.576 I1.587 J0.
G3 X412.241 Y2124.574 I-0.999 J0.999
G2 X411.118 Y2124.109 I-1.123 J1.123
G1 X401.603
G2 X400.481 Y2124.574 I0. J1.587
G3 X398.483 I-0.999 J-0.999
Y2122.576 I0.999 J-0.999
G2 X398.948 Y2121.454 I-1.123 J-1.122
G1 Y2079.939
G2 X398.483 Y2078.817 I-1.587 J0.
G3 Y2076.819 I0.999 J-0.999
X400.481 I0.999 J0.999
G2 X401.603 Y2077.284 I1.123 J-1.123
G1 X411.118
G2 X412.241 Y2076.819 I0. J-1.588
G3 X414.238 Y2078.817 I0.999 J0.999
G2 X413.773 Y2079.939 I1.123 J1.123
G1 Y2084.697
G3 X413.456 Y2085.014 I-0.318 J0.
G1 X413.138
G18 G3 X412.821 Z-11.683 I0. K0.318
G1 Y2084.379
Z-14.683 F833.
G2 X413.138 Z-15. I0.318 K0. F2500.
G1 X413.456
G17 G3 X413.773 Y2084.697 I0. J0.317
G1 Y2121.454
G2 X414.238 Y2122.576 I1.587 J0.
G3 X412.241 Y2124.574 I-0.999 J0.999
G2 X411.118 Y2124.109 I-1.123 J1.123
G1 X401.603
G2 X400.481 Y2124.574 I0. J1.587
G3 X398.483 I-0.999 J-0.999
Y2122.576 I0.999 J-0.999
G2 X398.948 Y2121.454 I-1.123 J-1.122
G1 Y2079.939
G2 X398.483 Y2078.817 I-1.587 J0.
G3 Y2076.819 I0.999 J-0.999
X400.481 I0.999 J0.999
G2 X401.603 Y2077.284 I1.123 J-1.123
G1 X411.118
G2 X412.241 Y2076.819 I0. J-1.588
G3 X414.238 Y2078.817 I0.999 J0.999
G2 X413.773 Y2079.939 I1.123 J1.123
G1 Y2084.697
G3 X413.456 Y2085.014 I-0.318 J0.
G1 X413.138
G18 G3 X412.821 Z-14.683 I0. K0.318
G1 Y2084.379
Z-17.683 F833.
G2 X413.138 Z-18. I0.318 K0. F2500.
G1 X413.456
G17 G3 X413.773 Y2084.697 I0. J0.317
G1 Y2121.454
G2 X414.238 Y2122.576 I1.587 J0.
G3 X412.241 Y2124.574 I-0.999 J0.999
G2 X411.118 Y2124.109 I-1.123 J1.123
G1 X401.603
G2 X400.481 Y2124.574 I0. J1.587
G3 X398.483 I-0.999 J-0.999
Y2122.576 I0.999 J-0.999
G2 X398.948 Y2121.454 I-1.123 J-1.122
G1 Y2079.939
G2 X398.483 Y2078.817 I-1.587 J0.
G3 Y2076.819 I0.999 J-0.999
X400.481 I0.999 J0.999
G2 X401.603 Y2077.284 I1.123 J-1.123
G1 X411.118
G2 X412.241 Y2076.819 I0. J-1.588
G3 X414.238 Y2078.817 I0.999 J0.999
G2 X413.773 Y2079.939 I1.123 J1.123
G1 Y2084.697
G3 X413.456 Y2085.014 I-0.318 J0.
G1 X413.138
G18 G3 X412.821 Z-17.683 I0. K0.317
G0 Z5.
X401.921 Y1824.206
G1 Z2. F833.
Z-2.683
G19 G3 Y1824.523 Z-3. J0.318 K0. F2500.
G1 Y1824.841
G17 G3 X401.603 Y1825.158 I-0.318 J0.
G2 X400.481 Y1825.623 I0. J1.587
G3 X398.483 Y1823.626 I-0.999 J-0.999
G2 X398.948 Y1822.503 I-1.123 J-1.122
G1 Y1780.989
G2 X398.483 Y1779.866 I-1.587 J0.
G3 Y1777.868 I0.999 J-0.999
X400.481 I0.999 J0.999
G2 X401.603 Y1778.333 I1.123 J-1.123
G1 X411.118
G2 X412.241 Y1777.868 I0. J-1.588
G3 X414.238 Y1779.866 I0.999 J0.999
G2 X413.773 Y1780.989 I1.123 J1.123
G1 Y1822.503
G2 X414.238 Y1823.626 I1.587 J0.
G3 X412.241 Y1825.623 I-0.999 J0.999
G2 X411.118 Y1825.158 I-1.123 J1.122
G1 X401.603
G3 X401.286 Y1824.841 I0. J-0.318
G1 Y1824.523
G19 G2 Y1824.206 Z-2.683 J0. K0.318
G1 X401.921
Z-5.683 F833.
G3 Y1824.523 Z-6. J0.318 K0. F2500.
G1 Y1824.841
G17 G3 X401.603 Y1825.158 I-0.318 J0.
G2 X400.481 Y1825.623 I0. J1.587
G3 X398.483 Y1823.626 I-0.999 J-0.999
G2 X398.948 Y1822.503 I-1.123 J-1.122
G1 Y1780.989
G2 X398.483 Y1779.866 I-1.587 J0.
G3 Y1777.868 I0.999 J-0.999
X400.481 I0.999 J0.999
G2 X401.603 Y1778.333 I1.123 J-1.123
G1 X411.118
G2 X412.241 Y1777.868 I0. J-1.588
G3 X414.238 Y1779.866 I0.999 J0.999
G2 X413.773 Y1780.989 I1.123 J1.123
G1 Y1822.503
G2 X414.238 Y1823.626 I1.587 J0.
G3 X412.241 Y1825.623 I-0.999 J0.999
G2 X411.118 Y1825.158 I-1.123 J1.122
G1 X401.603
G3 X401.286 Y1824.841 I0. J-0.318
G1 Y1824.523
G19 G2 Y1824.206 Z-5.683 J0. K0.318
G1 X401.921
Z-8.683 F833.
G3 Y1824.523 Z-9. J0.318 K0. F2500.
G1 Y1824.841
G17 G3 X401.603 Y1825.158 I-0.318 J0.
G2 X400.481 Y1825.623 I0. J1.587
G3 X398.483 Y1823.626 I-0.999 J-0.999
G2 X398.948 Y1822.503 I-1.123 J-1.122
G1 Y1780.989
G2 X398.483 Y1779.866 I-1.587 J0.
G3 Y1777.868 I0.999 J-0.999
X400.481 I0.999 J0.999
G2 X401.603 Y1778.333 I1.123 J-1.123
G1 X411.118
G2 X412.241 Y1777.868 I0. J-1.588
G3 X414.238 Y1779.866 I0.999 J0.999
G2 X413.773 Y1780.989 I1.123 J1.123
G1 Y1822.503
G2 X414.238 Y1823.626 I1.587 J0.
G3 X412.241 Y1825.623 I-0.999 J0.999
G2 X411.118 Y1825.158 I-1.123 J1.122
G1 X401.603
G3 X401.286 Y1824.841 I0. J-0.318
G1 Y1824.523
G19 G2 Y1824.206 Z-8.683 J0. K0.318
G1 X401.921
Z-11.683 F833.
G3 Y1824.523 Z-12. J0.318 K0. F2500.
G1 Y1824.841
G17 G3 X401.603 Y1825.158 I-0.318 J0.
G2 X400.481 Y1825.623 I0. J1.587
G3 X398.483 Y1823.626 I-0.999 J-0.999
G2 X398.948 Y1822.503 I-1.123 J-1.122
G1 Y1780.989
G2 X398.483 Y1779.866 I-1.587 J0.
G3 Y1777.868 I0.999 J-0.999
X400.481 I0.999 J0.999
G2 X401.603 Y1778.333 I1.123 J-1.123
G1 X411.118
G2 X412.241 Y1777.868 I0. J-1.588
G3 X414.238 Y1779.866 I0.999 J0.999
G2 X413.773 Y1780.989 I1.123 J1.123
G1 Y1822.503
G2 X414.238 Y1823.626 I1.587 J0.
G3 X412.241 Y1825.623 I-0.999 J0.999
G2 X411.118 Y1825.158 I-1.123 J1.122
G1 X401.603
G3 X401.286 Y1824.841 I0. J-0.318
G1 Y1824.523
G19 G2 Y1824.206 Z-11.683 J0. K0.318
G1 X401.921
Z-14.683 F833.
G3 Y1824.523 Z-15. J0.318 K0. F2500.
G1 Y1824.841
G17 G3 X401.603 Y1825.158 I-0.318 J0.
G2 X400.481 Y1825.623 I0. J1.587
G3 X398.483 Y1823.626 I-0.999 J-0.999
G2 X398.948 Y1822.503 I-1.123 J-1.122
G1 Y1780.989
G2 X398.483 Y1779.866 I-1.587 J0.
G3 Y1777.868 I0.999 J-0.999
X400.481 I0.999 J0.999
G2 X401.603 Y1778.333 I1.123 J-1.123
G1 X411.118
G2 X412.241 Y1777.868 I0. J-1.588
G3 X414.238 Y1779.866 I0.999 J0.999
G2 X413.773 Y1780.989 I1.123 J1.123
G1 Y1822.503
G2 X414.238 Y1823.626 I1.587 J0.
G3 X412.241 Y1825.623 I-0.999 J0.999
G2 X411.118 Y1825.158 I-1.123 J1.122
G1 X401.603
G3 X401.286 Y1824.841 I0. J-0.318
G1 Y1824.523
G19 G2 Y1824.206 Z-14.683 J0. K0.318
G1 X401.921
Z-17.683 F833.
G3 Y1824.523 Z-18. J0.318 K0. F2500.
G1 Y1824.841
G17 G3 X401.603 Y1825.158 I-0.318 J0.
G2 X400.481 Y1825.623 I0. J1.587
G3 X398.483 Y1823.626 I-0.999 J-0.999
G2 X398.948 Y1822.503 I-1.123 J-1.122
G1 Y1780.989
G2 X398.483 Y1779.866 I-1.587 J0.
G3 Y1777.868 I0.999 J-0.999
X400.481 I0.999 J0.999
G2 X401.603 Y1778.333 I1.123 J-1.123
G1 X411.118
G2 X412.241 Y1777.868 I0. J-1.588
G3 X414.238 Y1779.866 I0.999 J0.999
G2 X413.773 Y1780.989 I1.123 J1.123
G1 Y1822.503
G2 X414.238 Y1823.626 I1.587 J0.
G3 X412.241 Y1825.623 I-0.999 J0.999
G2 X411.118 Y1825.158 I-1.123 J1.122
G1 X401.603
G3 X401.286 Y1824.841 I0. J-0.318
G1 Y1824.523
G19 G2 Y1824.206 Z-17.683 J0. K0.317
G0 Z5.
X337.578 Y1191.249
G1 Z2. F833.
Z-2.683
G18 G2 X337.896 Z-3. I0.318 K0. F2500.
G1 X338.213
G17 G3 X338.531 Y1191.567 I0. J0.318
G2 X338.997 Y1192.69 I1.587 J0.
G3 X338.998 Y1194.688 I-0.998 J1.
X337. I-0.999 J-0.998
G2 X335.877 Y1194.223 I-1.123 J1.123
G1 X314.363
G2 X313.24 Y1194.688 I0. J1.588
G3 X311.242 Y1192.692 I-0.999 J-0.999
G2 X311.706 Y1191.57 I-1.123 J-1.122
G1 Y1182.052
G2 X311.242 Y1180.93 I-1.587 J0.
G3 X313.24 Y1178.933 I1. J-0.998
G2 X314.363 Y1179.398 I1.123 J-1.122
G1 X335.877
G2 X336.999 Y1178.934 I0. J-1.587
G3 X338.998 I0.999 J0.998
X338.997 Y1180.932 I-0.999 J0.999
G2 X338.531 Y1182.055 I1.122 J1.124
G1 Y1191.567
G3 X338.213 Y1191.884 I-0.318 J0.
G1 X337.896
G18 G3 X337.578 Z-2.683 I0. K0.318
G1 Y1191.249
Z-5.683 F833.
G2 X337.896 Z-6. I0.318 K0. F2500.
G1 X338.213
G17 G3 X338.531 Y1191.567 I0. J0.318
G2 X338.997 Y1192.69 I1.587 J0.
G3 X338.998 Y1194.688 I-0.998 J1.
X337. I-0.999 J-0.998
G2 X335.877 Y1194.223 I-1.123 J1.123
G1 X314.363
G2 X313.24 Y1194.688 I0. J1.588
G3 X311.242 Y1192.692 I-0.999 J-0.999
G2 X311.706 Y1191.57 I-1.123 J-1.122
G1 Y1182.052
G2 X311.242 Y1180.93 I-1.587 J0.
G3 X313.24 Y1178.933 I1. J-0.998
G2 X314.363 Y1179.398 I1.123 J-1.122
G1 X335.877
G2 X336.999 Y1178.934 I0. J-1.587
G3 X338.998 I0.999 J0.998
X338.997 Y1180.932 I-0.999 J0.999
G2 X338.531 Y1182.055 I1.122 J1.124
G1 Y1191.567
G3 X338.213 Y1191.884 I-0.318 J0.
G1 X337.896
G18 G3 X337.578 Z-5.683 I0. K0.318
G1 Y1191.249
Z-8.683 F833.
G2 X337.896 Z-9. I0.318 K0. F2500.
G1 X338.213
G17 G3 X338.531 Y1191.567 I0. J0.318
G2 X338.997 Y1192.69 I1.587 J0.
G3 X338.998 Y1194.688 I-0.998 J1.
X337. I-0.999 J-0.998
G2 X335.877 Y1194.223 I-1.123 J1.123
G1 X314.363
G2 X313.24 Y1194.688 I0. J1.588
G3 X311.242 Y1192.692 I-0.999 J-0.999
G2 X311.706 Y1191.57 I-1.123 J-1.122
G1 Y1182.052
G2 X311.242 Y1180.93 I-1.587 J0.
G3 X313.24 Y1178.933 I1. J-0.998
G2 X314.363 Y1179.398 I1.123 J-1.122
G1 X335.877
G2 X336.999 Y1178.934 I0. J-1.587
G3 X338.998 I0.999 J0.998
X338.997 Y1180.932 I-0.999 J0.999
G2 X338.531 Y1182.055 I1.122 J1.124
G1 Y1191.567
G3 X338.213 Y1191.884 I-0.318 J0.
G1 X337.896
G18 G3 X337.578 Z-8.683 I0. K0.318
G1 Y1191.249
Z-11.683 F833.
G2 X337.896 Z-12. I0.318 K0. F2500.
G1 X338.213
G17 G3 X338.531 Y1191.567 I0. J0.318
G2 X338.997 Y1192.69 I1.587 J0.
G3 X338.998 Y1194.688 I-0.998 J1.
X337. I-0.999 J-0.998
G2 X335.877 Y1194.223 I-1.123 J1.123
G1 X314.363
G2 X313.24 Y1194.688 I0. J1.588
G3 X311.242 Y1192.692 I-0.999 J-0.999
G2 X311.706 Y1191.57 I-1.123 J-1.122
G1 Y1182.052
G2 X311.242 Y1180.93 I-1.587 J0.
G3 X313.24 Y1178.933 I1. J-0.998
G2 X314.363 Y1179.398 I1.123 J-1.122
G1 X335.877
G2 X336.999 Y1178.934 I0. J-1.587
G3 X338.998 I0.999 J0.998
X338.997 Y1180.932 I-0.999 J0.999
G2 X338.531 Y1182.055 I1.122 J1.124
G1 Y1191.567
G3 X338.213 Y1191.884 I-0.318 J0.
G1 X337.896
G18 G3 X337.578 Z-11.683 I0. K0.318
G1 Y1191.249
Z-14.683 F833.
G2 X337.896 Z-15. I0.318 K0. F2500.
G1 X338.213
G17 G3 X338.531 Y1191.567 I0. J0.318
G2 X338.997 Y1192.69 I1.587 J0.
G3 X338.998 Y1194.688 I-0.998 J1.
X337. I-0.999 J-0.998
G2 X335.877 Y1194.223 I-1.123 J1.123
G1 X314.363
G2 X313.24 Y1194.688 I0. J1.588
G3 X311.242 Y1192.692 I-0.999 J-0.999
G2 X311.706 Y1191.57 I-1.123 J-1.122
G1 Y1182.052
G2 X311.242 Y1180.93 I-1.587 J0.
G3 X313.24 Y1178.933 I1. J-0.998
G2 X314.363 Y1179.398 I1.123 J-1.122
G1 X335.877
G2 X336.999 Y1178.934 I0. J-1.587
G3 X338.998 I0.999 J0.998
X338.997 Y1180.932 I-0.999 J0.999
G2 X338.531 Y1182.055 I1.122 J1.124
G1 Y1191.567
G3 X338.213 Y1191.884 I-0.318 J0.
G1 X337.896
G18 G3 X337.578 Z-14.683 I0. K0.318
G1 Y1191.249
Z-17.683 F833.
G2 X337.896 Z-18. I0.318 K0. F2500.
G1 X338.213
G17 G3 X338.531 Y1191.567 I0. J0.318
G2 X338.997 Y1192.69 I1.587 J0.
G3 X338.998 Y1194.688 I-0.998 J1.
X337. I-0.999 J-0.998
G2 X335.877 Y1194.223 I-1.123 J1.123
G1 X314.363
G2 X313.24 Y1194.688 I0. J1.588
G3 X311.242 Y1192.692 I-0.999 J-0.999
G2 X311.706 Y1191.57 I-1.123 J-1.122
G1 Y1182.052
G2 X311.242 Y1180.93 I-1.587 J0.
G3 X313.24 Y1178.933 I1. J-0.998
G2 X314.363 Y1179.398 I1.123 J-1.122
G1 X335.877
G2 X336.999 Y1178.934 I0. J-1.587
G3 X338.998 I0.999 J0.998
X338.997 Y1180.932 I-0.999 J0.999
G2 X338.531 Y1182.055 I1.122 J1.124
G1 Y1191.567
G3 X338.213 Y1191.884 I-0.318 J0.
G1 X337.896
G18 G3 X337.578 Z-17.683 I0. K0.317
G0 Z5.
X153.46 Y1142.601
G1 Z2. F833.
Z-2.683
G2 X153.777 Z-3. I0.317 K0. F2500.
G1 X154.095
G17 G3 X154.413 Y1142.918 I0. J0.318
G2 X154.877 Y1144.041 I1.587 J0.
G3 X152.88 Y1146.038 I-0.999 J0.999
G2 X151.757 Y1145.573 I-1.123 J1.123
G1 X110.243
G2 X109.12 Y1146.038 I0. J1.588
G3 X107.123 Y1144.041 I-0.999 J-0.999
G2 X107.588 Y1142.918 I-1.123 J-1.123
G1 Y1133.404
G2 X107.123 Y1132.281 I-1.588 J0.
G3 X109.12 Y1130.283 I0.999 J-0.999
G2 X110.243 Y1130.748 I1.123 J-1.123
G1 X151.757
G2 X152.88 Y1130.283 I0. J-1.588
G3 X154.877 Y1132.281 I0.999 J0.999
G2 X154.413 Y1133.404 I1.123 J1.123
G1 Y1142.918
G3 X154.095 Y1143.236 I-0.318 J0.
G1 X153.777
G18 G3 X153.46 Z-2.683 I0. K0.318
G1 Y1142.601
Z-5.683 F833.
G2 X153.777 Z-6. I0.317 K0. F2500.
G1 X154.095
G17 G3 X154.413 Y1142.918 I0. J0.318
G2 X154.877 Y1144.041 I1.587 J0.
G3 X152.88 Y1146.038 I-0.999 J0.999
G2 X151.757 Y1145.573 I-1.123 J1.123
G1 X110.243
G2 X109.12 Y1146.038 I0. J1.588
G3 X107.123 Y1144.041 I-0.999 J-0.999
G2 X107.588 Y1142.918 I-1.123 J-1.123
G1 Y1133.404
G2 X107.123 Y1132.281 I-1.588 J0.
G3 X109.12 Y1130.283 I0.999 J-0.999
G2 X110.243 Y1130.748 I1.123 J-1.123
G1 X151.757
G2 X152.88 Y1130.283 I0. J-1.588
G3 X154.877 Y1132.281 I0.999 J0.999
G2 X154.413 Y1133.404 I1.123 J1.123
G1 Y1142.918
G3 X154.095 Y1143.236 I-0.318 J0.
G1 X153.777
G18 G3 X153.46 Z-5.683 I0. K0.318
G1 Y1142.601
Z-8.683 F833.
G2 X153.777 Z-9. I0.317 K0. F2500.
G1 X154.095
G17 G3 X154.413 Y1142.918 I0. J0.318
G2 X154.877 Y1144.041 I1.587 J0.
G3 X152.88 Y1146.038 I-0.999 J0.999
G2 X151.757 Y1145.573 I-1.123 J1.123
G1 X110.243
G2 X109.12 Y1146.038 I0. J1.588
G3 X107.123 Y1144.041 I-0.999 J-0.999
G2 X107.588 Y1142.918 I-1.123 J-1.123
G1 Y1133.404
G2 X107.123 Y1132.281 I-1.588 J0.
G3 X109.12 Y1130.283 I0.999 J-0.999
G2 X110.243 Y1130.748 I1.123 J-1.123
G1 X151.757
G2 X152.88 Y1130.283 I0. J-1.588
G3 X154.877 Y1132.281 I0.999 J0.999
G2 X154.413 Y1133.404 I1.123 J1.123
G1 Y1142.918
G3 X154.095 Y1143.236 I-0.318 J0.
G1 X153.777
G18 G3 X153.46 Z-8.683 I0. K0.318
G1 Y1142.601
Z-11.683 F833.
G2 X153.777 Z-12. I0.317 K0. F2500.
G1 X154.095
G17 G3 X154.413 Y1142.918 I0. J0.318
G2 X154.877 Y1144.041 I1.587 J0.
G3 X152.88 Y1146.038 I-0.999 J0.999
G2 X151.757 Y1145.573 I-1.123 J1.123
G1 X110.243
G2 X109.12 Y1146.038 I0. J1.588
G3 X107.123 Y1144.041 I-0.999 J-0.999
G2 X107.588 Y1142.918 I-1.123 J-1.123
G1 Y1133.404
G2 X107.123 Y1132.281 I-1.588 J0.
G3 X109.12 Y1130.283 I0.999 J-0.999
G2 X110.243 Y1130.748 I1.123 J-1.123
G1 X151.757
G2 X152.88 Y1130.283 I0. J-1.588
G3 X154.877 Y1132.281 I0.999 J0.999
G2 X154.413 Y1133.404 I1.123 J1.123
G1 Y1142.918
G3 X154.095 Y1143.236 I-0.318 J0.
G1 X153.777
G18 G3 X153.46 Z-11.683 I0. K0.318
G1 Y1142.601
Z-14.683 F833.
G2 X153.777 Z-15. I0.317 K0. F2500.
G1 X154.095
G17 G3 X154.413 Y1142.918 I0. J0.318
G2 X154.877 Y1144.041 I1.587 J0.
G3 X152.88 Y1146.038 I-0.999 J0.999
G2 X151.757 Y1145.573 I-1.123 J1.123
G1 X110.243
G2 X109.12 Y1146.038 I0. J1.588
G3 X107.123 Y1144.041 I-0.999 J-0.999
G2 X107.588 Y1142.918 I-1.123 J-1.123
G1 Y1133.404
G2 X107.123 Y1132.281 I-1.588 J0.
G3 X109.12 Y1130.283 I0.999 J-0.999
G2 X110.243 Y1130.748 I1.123 J-1.123
G1 X151.757
G2 X152.88 Y1130.283 I0. J-1.588
G3 X154.877 Y1132.281 I0.999 J0.999
G2 X154.413 Y1133.404 I1.123 J1.123
G1 Y1142.918
G3 X154.095 Y1143.236 I-0.318 J0.
G1 X153.777
G18 G3 X153.46 Z-14.683 I0. K0.318
G1 Y1142.601
Z-17.683 F833.
G2 X153.777 Z-18. I0.317 K0. F2500.
G1 X154.095
G17 G3 X154.413 Y1142.918 I0. J0.318
G2 X154.877 Y1144.041 I1.587 J0.
G3 X152.88 Y1146.038 I-0.999 J0.999
G2 X151.757 Y1145.573 I-1.123 J1.123
G1 X110.243
G2 X109.12 Y1146.038 I0. J1.588
G3 X107.123 Y1144.041 I-0.999 J-0.999
G2 X107.588 Y1142.918 I-1.123 J-1.123
G1 Y1133.404
G2 X107.123 Y1132.281 I-1.588 J0.
G3 X109.12 Y1130.283 I0.999 J-0.999
G2 X110.243 Y1130.748 I1.123 J-1.123
G1 X151.757
G2 X152.88 Y1130.283 I0. J-1.588
G3 X154.877 Y1132.281 I0.999 J0.999
G2 X154.413 Y1133.404 I1.123 J1.123
G1 Y1142.918
G3 X154.095 Y1143.236 I-0.318 J0.
G1 X153.777
G18 G3 X153.46 Z-17.683 I0. K0.317
G0 Z5.
X117.317 Y1193.271
G1 Z2. F833.
Z-2.683
G19 G3 Y1193.588 Z-3. J0.318 K0. F2500.
G1 Y1193.906
G17 G3 X117. Y1194.223 I-0.317 J0.
G1 X112.243
G2 X111.12 Y1194.688 I0. J1.588
G3 X109.123 Y1192.691 I-0.999 J-0.999
G2 X109.588 Y1191.568 I-1.123 J-1.123
G1 Y1182.053
G2 X109.123 Y1180.931 I-1.588 J0.
G3 X109.122 Y1178.933 I0.999 J-0.999
X111.12 I0.999 J0.999
G2 X112.243 Y1179.398 I1.123 J-1.122
G1 X133.757
G2 X134.88 Y1178.933 I0. J-1.587
G3 X136.878 I0.999 J0.999
X136.877 Y1180.931 I-0.999 J0.999
G2 X136.413 Y1182.053 I1.123 J1.122
G1 Y1191.568
G2 X136.877 Y1192.691 I1.587 J0.
G3 X134.88 Y1194.688 I-0.999 J0.999
G2 X133.757 Y1194.223 I-1.123 J1.123
G1 X117.
G3 X116.683 Y1193.906 I0. J-0.318
G1 Y1193.588
G19 G2 Y1193.271 Z-2.683 J0. K0.318
G1 X112.56
Z-5.683 F833.
G3 Y1193.588 Z-6. J0.318 K0. F2500.
G1 Y1193.906
G17 G3 X112.243 Y1194.223 I-0.318 J0.
G2 X111.12 Y1194.688 I0. J1.588
G3 X109.123 Y1192.691 I-0.999 J-0.999
G2 X109.588 Y1191.568 I-1.123 J-1.123
G1 Y1182.053
G2 X109.123 Y1180.931 I-1.588 J0.
G3 X109.122 Y1178.933 I0.999 J-0.999
X111.12 I0.999 J0.999
G2 X112.243 Y1179.398 I1.123 J-1.122
G1 X133.757
G2 X134.88 Y1178.933 I0. J-1.587
G3 X136.878 I0.999 J0.999
X136.877 Y1180.931 I-0.999 J0.999
G2 X136.413 Y1182.053 I1.123 J1.122
G1 Y1191.568
G2 X136.877 Y1192.691 I1.587 J0.
G3 X134.88 Y1194.688 I-0.999 J0.999
G2 X133.757 Y1194.223 I-1.123 J1.123
G1 X112.243
G3 X111.925 Y1193.906 I0. J-0.318
G1 Y1193.588
G19 G2 Y1193.271 Z-5.683 J0. K0.318
G1 X112.56
Z-8.683 F833.
G3 Y1193.588 Z-9. J0.318 K0. F2500.
G1 Y1193.906
G17 G3 X112.243 Y1194.223 I-0.318 J0.
G2 X111.12 Y1194.688 I0. J1.588
G3 X109.123 Y1192.691 I-0.999 J-0.999
G2 X109.588 Y1191.568 I-1.123 J-1.123
G1 Y1182.053
G2 X109.123 Y1180.931 I-1.588 J0.
G3 X109.122 Y1178.933 I0.999 J-0.999
X111.12 I0.999 J0.999
G2 X112.243 Y1179.398 I1.123 J-1.122
G1 X133.757
G2 X134.88 Y1178.933 I0. J-1.587
G3 X136.878 I0.999 J0.999
X136.877 Y1180.931 I-0.999 J0.999
G2 X136.413 Y1182.053 I1.123 J1.122
G1 Y1191.568
G2 X136.877 Y1192.691 I1.587 J0.
G3 X134.88 Y1194.688 I-0.999 J0.999
G2 X133.757 Y1194.223 I-1.123 J1.123
G1 X112.243
G3 X111.925 Y1193.906 I0. J-0.318
G1 Y1193.588
G19 G2 Y1193.271 Z-8.683 J0. K0.318
G1 X112.56
Z-11.683 F833.
G3 Y1193.588 Z-12. J0.318 K0. F2500.
G1 Y1193.906
G17 G3 X112.243 Y1194.223 I-0.318 J0.
G2 X111.12 Y1194.688 I0. J1.588
G3 X109.123 Y1192.691 I-0.999 J-0.999
G2 X109.588 Y1191.568 I-1.123 J-1.123
G1 Y1182.053
G2 X109.123 Y1180.931 I-1.588 J0.
G3 X109.122 Y1178.933 I0.999 J-0.999
X111.12 I0.999 J0.999
G2 X112.243 Y1179.398 I1.123 J-1.122
G1 X133.757
G2 X134.88 Y1178.933 I0. J-1.587
G3 X136.878 I0.999 J0.999
X136.877 Y1180.931 I-0.999 J0.999
G2 X136.413 Y1182.053 I1.123 J1.122
G1 Y1191.568
G2 X136.877 Y1192.691 I1.587 J0.
G3 X134.88 Y1194.688 I-0.999 J0.999
G2 X133.757 Y1194.223 I-1.123 J1.123
G1 X112.243
G3 X111.925 Y1193.906 I0. J-0.318
G1 Y1193.588
G19 G2 Y1193.271 Z-11.683 J0. K0.318
G1 X112.56
Z-14.683 F833.
G3 Y1193.588 Z-15. J0.318 K0. F2500.
G1 Y1193.906
G17 G3 X112.243 Y1194.223 I-0.318 J0.
G2 X111.12 Y1194.688 I0. J1.588
G3 X109.123 Y1192.691 I-0.999 J-0.999
G2 X109.588 Y1191.568 I-1.123 J-1.123
G1 Y1182.053
G2 X109.123 Y1180.931 I-1.588 J0.
G3 X109.122 Y1178.933 I0.999 J-0.999
X111.12 I0.999 J0.999
G2 X112.243 Y1179.398 I1.123 J-1.122
G1 X133.757
G2 X134.88 Y1178.933 I0. J-1.587
G3 X136.878 I0.999 J0.999
X136.877 Y1180.931 I-0.999 J0.999
G2 X136.413 Y1182.053 I1.123 J1.122
G1 Y1191.568
G2 X136.877 Y1192.691 I1.587 J0.
G3 X134.88 Y1194.688 I-0.999 J0.999
G2 X133.757 Y1194.223 I-1.123 J1.123
G1 X112.243
G3 X111.925 Y1193.906 I0. J-0.318
G1 Y1193.588
G19 G2 Y1193.271 Z-14.683 J0. K0.318
G1 X112.56
Z-17.683 F833.
G3 Y1193.588 Z-18. J0.318 K0. F2500.
G1 Y1193.906
G17 G3 X112.243 Y1194.223 I-0.318 J0.
G2 X111.12 Y1194.688 I0. J1.588
G3 X109.123 Y1192.691 I-0.999 J-0.999
G2 X109.588 Y1191.568 I-1.123 J-1.123
G1 Y1182.053
G2 X109.123 Y1180.931 I-1.588 J0.
G3 X109.122 Y1178.933 I0.999 J-0.999
X111.12 I0.999 J0.999
G2 X112.243 Y1179.398 I1.123 J-1.122
G1 X133.757
G2 X134.88 Y1178.933 I0. J-1.587
G3 X136.878 I0.999 J0.999
X136.877 Y1180.931 I-0.999 J0.999
G2 X136.413 Y1182.053 I1.123 J1.122
G1 Y1191.568
G2 X136.877 Y1192.691 I1.587 J0.
G3 X134.88 Y1194.688 I-0.999 J0.999
G2 X133.757 Y1194.223 I-1.123 J1.123
G1 X112.243
G3 X111.925 Y1193.906 I0. J-0.318
G1 Y1193.588
G19 G2 Y1193.271 Z-17.683 J0. K0.317
G0 Z5.
X567.578 Y1186.493
G1 Z2. F833.
Z-2.683
G18 G2 X567.896 Z-3. I0.318 K0. F2500.
G1 X568.213
G17 G3 X568.531 Y1186.811 I0. J0.318
G1 Y1191.567
G2 X568.997 Y1192.69 I1.588 J0.
G3 X568.998 Y1194.688 I-0.998 J1.
X567. I-0.999 J-0.998
G2 X565.877 Y1194.223 I-1.122 J1.123
G1 X544.363
G2 X543.24 Y1194.688 I0. J1.588
G3 X541.242 Y1192.692 I-0.999 J-0.999
G2 X541.706 Y1191.57 I-1.123 J-1.122
G1 Y1182.052
G2 X541.242 Y1180.93 I-1.587 J0.
G3 X543.24 Y1178.933 I1. J-0.998
G2 X544.363 Y1179.398 I1.123 J-1.122
G1 X565.877
G2 X567. Y1178.933 I0. J-1.587
G3 X568.998 Y1178.934 I0.999 J0.999
X568.997 Y1180.932 I-0.999 J0.998
G2 X568.531 Y1182.055 I1.122 J1.124
G1 Y1186.811
G3 X568.213 Y1187.128 I-0.318 J0.
G1 X567.896
G18 G3 X567.578 Z-2.683 I0. K0.318
G1 Y1191.249
Z-5.683 F833.
G2 X567.896 Z-6. I0.318 K0. F2500.
G1 X568.213
G17 G3 X568.531 Y1191.567 I0. J0.318
G2 X568.997 Y1192.69 I1.588 J0.
G3 X568.998 Y1194.688 I-0.998 J1.
X567. I-0.999 J-0.998
G2 X565.877 Y1194.223 I-1.122 J1.123
G1 X544.363
G2 X543.24 Y1194.688 I0. J1.588
G3 X541.242 Y1192.692 I-0.999 J-0.999
G2 X541.706 Y1191.57 I-1.123 J-1.122
G1 Y1182.052
G2 X541.242 Y1180.93 I-1.587 J0.
G3 X543.24 Y1178.933 I1. J-0.998
G2 X544.363 Y1179.398 I1.123 J-1.122
G1 X565.877
G2 X567. Y1178.933 I0. J-1.587
G3 X568.998 Y1178.934 I0.999 J0.999
X568.997 Y1180.932 I-0.999 J0.998
G2 X568.531 Y1182.055 I1.122 J1.124
G1 Y1191.567
G3 X568.213 Y1191.884 I-0.318 J0.
G1 X567.896
G18 G3 X567.578 Z-5.683 I0. K0.318
G1 Y1191.249
Z-8.683 F833.
G2 X567.896 Z-9. I0.318 K0. F2500.
G1 X568.213
G17 G3 X568.531 Y1191.567 I0. J0.318
G2 X568.997 Y1192.69 I1.588 J0.
G3 X568.998 Y1194.688 I-0.998 J1.
X567. I-0.999 J-0.998
G2 X565.877 Y1194.223 I-1.122 J1.123
G1 X544.363
G2 X543.24 Y1194.688 I0. J1.588
G3 X541.242 Y1192.692 I-0.999 J-0.999
G2 X541.706 Y1191.57 I-1.123 J-1.122
G1 Y1182.052
G2 X541.242 Y1180.93 I-1.587 J0.
G3 X543.24 Y1178.933 I1. J-0.998
G2 X544.363 Y1179.398 I1.123 J-1.122
G1 X565.877
G2 X567. Y1178.933 I0. J-1.587
G3 X568.998 Y1178.934 I0.999 J0.999
X568.997 Y1180.932 I-0.999 J0.998
G2 X568.531 Y1182.055 I1.122 J1.124
G1 Y1191.567
G3 X568.213 Y1191.884 I-0.318 J0.
G1 X567.896
G18 G3 X567.578 Z-8.683 I0. K0.318
G1 Y1191.249
Z-11.683 F833.
G2 X567.896 Z-12. I0.318 K0. F2500.
G1 X568.213
G17 G3 X568.531 Y1191.567 I0. J0.318
G2 X568.997 Y1192.69 I1.588 J0.
G3 X568.998 Y1194.688 I-0.998 J1.
X567. I-0.999 J-0.998
G2 X565.877 Y1194.223 I-1.122 J1.123
G1 X544.363
G2 X543.24 Y1194.688 I0. J1.588
G3 X541.242 Y1192.692 I-0.999 J-0.999
G2 X541.706 Y1191.57 I-1.123 J-1.122
G1 Y1182.052
G2 X541.242 Y1180.93 I-1.587 J0.
G3 X543.24 Y1178.933 I1. J-0.998
G2 X544.363 Y1179.398 I1.123 J-1.122
G1 X565.877
G2 X567. Y1178.933 I0. J-1.587
G3 X568.998 Y1178.934 I0.999 J0.999
X568.997 Y1180.932 I-0.999 J0.998
G2 X568.531 Y1182.055 I1.122 J1.124
G1 Y1191.567
G3 X568.213 Y1191.884 I-0.318 J0.
G1 X567.896
G18 G3 X567.578 Z-11.683 I0. K0.318
G1 Y1191.249
Z-14.683 F833.
G2 X567.896 Z-15. I0.318 K0. F2500.
G1 X568.213
G17 G3 X568.531 Y1191.567 I0. J0.318
G2 X568.997 Y1192.69 I1.588 J0.
G3 X568.998 Y1194.688 I-0.998 J1.
X567. I-0.999 J-0.998
G2 X565.877 Y1194.223 I-1.122 J1.123
G1 X544.363
G2 X543.24 Y1194.688 I0. J1.588
G3 X541.242 Y1192.692 I-0.999 J-0.999
G2 X541.706 Y1191.57 I-1.123 J-1.122
G1 Y1182.052
G2 X541.242 Y1180.93 I-1.587 J0.
G3 X543.24 Y1178.933 I1. J-0.998
G2 X544.363 Y1179.398 I1.123 J-1.122
G1 X565.877
G2 X567. Y1178.933 I0. J-1.587
G3 X568.998 Y1178.934 I0.999 J0.999
X568.997 Y1180.932 I-0.999 J0.998
G2 X568.531 Y1182.055 I1.122 J1.124
G1 Y1191.567
G3 X568.213 Y1191.884 I-0.318 J0.
G1 X567.896
G18 G3 X567.578 Z-14.683 I0. K0.318
G1 Y1191.249
Z-17.683 F833.
G2 X567.896 Z-18. I0.318 K0. F2500.
G1 X568.213
G17 G3 X568.531 Y1191.567 I0. J0.318
G2 X568.997 Y1192.69 I1.588 J0.
G3 X568.998 Y1194.688 I-0.998 J1.
X567. I-0.999 J-0.998
G2 X565.877 Y1194.223 I-1.122 J1.123
G1 X544.363
G2 X543.24 Y1194.688 I0. J1.588
G3 X541.242 Y1192.692 I-0.999 J-0.999
G2 X541.706 Y1191.57 I-1.123 J-1.122
G1 Y1182.052
G2 X541.242 Y1180.93 I-1.587 J0.
G3 X543.24 Y1178.933 I1. J-0.998
G2 X544.363 Y1179.398 I1.123 J-1.122
G1 X565.877
G2 X567. Y1178.933 I0. J-1.587
G3 X568.998 Y1178.934 I0.999 J0.999
X568.997 Y1180.932 I-0.999 J0.998
G2 X568.531 Y1182.055 I1.122 J1.124
G1 Y1191.567
G3 X568.213 Y1191.884 I-0.318 J0.
G1 X567.896
G18 G3 X567.578 Z-17.683 I0. K0.317
G0 Z5.
X774.68 Y1193.271
G1 Z2. F833.
Z-2.683
G19 G3 Y1193.588 Z-3. J0.318 K0. F2500.
G1 Y1193.906
G17 G3 X774.363 Y1194.223 I-0.318 J0.
G1 X774.359
G2 X773.237 Y1194.688 I0. J1.588
G3 X771.239 I-0.999 J-0.999
X771.24 Y1192.69 I0.999 J-0.998
G2 X771.706 Y1191.567 I-1.122 J-1.123
G1 Y1182.055
G2 X771.24 Y1180.932 I-1.587 J0.
G3 X771.239 Y1178.934 I0.998 J-1.
X773.237 Y1178.933 I0.999 J0.998
G2 X774.359 Y1179.398 I1.122 J-1.122
G1 X795.874
G2 X796.996 Y1178.933 I0. J-1.587
G3 X798.995 Y1180.93 I0.999 J0.999
G2 X798.531 Y1182.052 I1.123 J1.122
G1 Y1191.57
G2 X798.995 Y1192.692 I1.588 J0.
G3 X796.996 Y1194.688 I-1. J0.998
G2 X795.874 Y1194.223 I-1.122 J1.123
G1 X774.363
G3 X774.045 Y1193.906 I0. J-0.318
G1 Y1193.588
G19 G2 Y1193.271 Z-2.683 J0. K0.318
G1 X774.68
Z-5.683 F833.
G3 Y1193.588 Z-6. J0.318 K0. F2500.
G1 Y1193.906
G17 G3 X774.363 Y1194.223 I-0.318 J0.
G1 X774.359
G2 X773.237 Y1194.688 I0. J1.588
G3 X771.239 I-0.999 J-0.999
X771.24 Y1192.69 I0.999 J-0.998
G2 X771.706 Y1191.567 I-1.122 J-1.123
G1 Y1182.055
G2 X771.24 Y1180.932 I-1.587 J0.
G3 X771.239 Y1178.934 I0.998 J-1.
X773.237 Y1178.933 I0.999 J0.998
G2 X774.359 Y1179.398 I1.122 J-1.122
G1 X795.874
G2 X796.996 Y1178.933 I0. J-1.587
G3 X798.995 Y1180.93 I0.999 J0.999
G2 X798.531 Y1182.052 I1.123 J1.122
G1 Y1191.57
G2 X798.995 Y1192.692 I1.588 J0.
G3 X796.996 Y1194.688 I-1. J0.998
G2 X795.874 Y1194.223 I-1.122 J1.123
G1 X774.363
G3 X774.045 Y1193.906 I0. J-0.318
G1 Y1193.588
G19 G2 Y1193.271 Z-5.683 J0. K0.318
G1 X774.68
Z-8.683 F833.
G3 Y1193.588 Z-9. J0.318 K0. F2500.
G1 Y1193.906
G17 G3 X774.363 Y1194.223 I-0.318 J0.
G1 X774.359
G2 X773.237 Y1194.688 I0. J1.588
G3 X771.239 I-0.999 J-0.999
X771.24 Y1192.69 I0.999 J-0.998
G2 X771.706 Y1191.567 I-1.122 J-1.123
G1 Y1182.055
G2 X771.24 Y1180.932 I-1.587 J0.
G3 X771.239 Y1178.934 I0.998 J-1.
X773.237 Y1178.933 I0.999 J0.998
G2 X774.359 Y1179.398 I1.122 J-1.122
G1 X795.874
G2 X796.996 Y1178.933 I0. J-1.587
G3 X798.995 Y1180.93 I0.999 J0.999
G2 X798.531 Y1182.052 I1.123 J1.122
G1 Y1191.57
G2 X798.995 Y1192.692 I1.588 J0.
G3 X796.996 Y1194.688 I-1. J0.998
G2 X795.874 Y1194.223 I-1.122 J1.123
G1 X774.363
G3 X774.045 Y1193.906 I0. J-0.318
G1 Y1193.588
G19 G2 Y1193.271 Z-8.683 J0. K0.318
G1 X774.68
Z-11.683 F833.
G3 Y1193.588 Z-12. J0.318 K0. F2500.
G1 Y1193.906
G17 G3 X774.363 Y1194.223 I-0.318 J0.
G1 X774.359
G2 X773.237 Y1194.688 I0. J1.588
G3 X771.239 I-0.999 J-0.999
X771.24 Y1192.69 I0.999 J-0.998
G2 X771.706 Y1191.567 I-1.122 J-1.123
G1 Y1182.055
G2 X771.24 Y1180.932 I-1.587 J0.
G3 X771.239 Y1178.934 I0.998 J-1.
X773.237 Y1178.933 I0.999 J0.998
G2 X774.359 Y1179.398 I1.122 J-1.122
G1 X795.874
G2 X796.996 Y1178.933 I0. J-1.587
G3 X798.995 Y1180.93 I0.999 J0.999
G2 X798.531 Y1182.052 I1.123 J1.122
G1 Y1191.57
G2 X798.995 Y1192.692 I1.588 J0.
G3 X796.996 Y1194.688 I-1. J0.998
G2 X795.874 Y1194.223 I-1.122 J1.123
G1 X774.363
G3 X774.045 Y1193.906 I0. J-0.318
G1 Y1193.588
G19 G2 Y1193.271 Z-11.683 J0. K0.318
G1 X774.68
Z-14.683 F833.
G3 Y1193.588 Z-15. J0.318 K0. F2500.
G1 Y1193.906
G17 G3 X774.363 Y1194.223 I-0.318 J0.
G1 X774.359
G2 X773.237 Y1194.688 I0. J1.588
G3 X771.239 I-0.999 J-0.999
X771.24 Y1192.69 I0.999 J-0.998
G2 X771.706 Y1191.567 I-1.122 J-1.123
G1 Y1182.055
G2 X771.24 Y1180.932 I-1.587 J0.
G3 X771.239 Y1178.934 I0.998 J-1.
X773.237 Y1178.933 I0.999 J0.998
G2 X774.359 Y1179.398 I1.122 J-1.122
G1 X795.874
G2 X796.996 Y1178.933 I0. J-1.587
G3 X798.995 Y1180.93 I0.999 J0.999
G2 X798.531 Y1182.052 I1.123 J1.122
G1 Y1191.57
G2 X798.995 Y1192.692 I1.588 J0.
G3 X796.996 Y1194.688 I-1. J0.998
G2 X795.874 Y1194.223 I-1.122 J1.123
G1 X774.363
G3 X774.045 Y1193.906 I0. J-0.318
G1 Y1193.588
G19 G2 Y1193.271 Z-14.683 J0. K0.318
G1 X774.68
Z-17.683 F833.
G3 Y1193.588 Z-18. J0.318 K0. F2500.
G1 Y1193.906
G17 G3 X774.363 Y1194.223 I-0.318 J0.
G1 X774.359
G2 X773.237 Y1194.688 I0. J1.588
G3 X771.239 I-0.999 J-0.999
X771.24 Y1192.69 I0.999 J-0.998
G2 X771.706 Y1191.567 I-1.122 J-1.123
G1 Y1182.055
G2 X771.24 Y1180.932 I-1.587 J0.
G3 X771.239 Y1178.934 I0.998 J-1.
X773.237 Y1178.933 I0.999 J0.998
G2 X774.359 Y1179.398 I1.122 J-1.122
G1 X795.874
G2 X796.996 Y1178.933 I0. J-1.587
G3 X798.995 Y1180.93 I0.999 J0.999
G2 X798.531 Y1182.052 I1.123 J1.122
G1 Y1191.57
G2 X798.995 Y1192.692 I1.588 J0.
G3 X796.996 Y1194.688 I-1. J0.998
G2 X795.874 Y1194.223 I-1.122 J1.123
G1 X774.363
G3 X774.045 Y1193.906 I0. J-0.318
G1 Y1193.588
G19 G2 Y1193.271 Z-17.683 J0. K0.317
G0 Z5.
X958.797 Y1144.621
G1 Z2. F833.
Z-2.683
G3 Y1144.938 Z-3. J0.318 K0. F2500.
G1 Y1145.256
G17 G3 X958.479 Y1145.573 I-0.317 J0.
G2 X957.357 Y1146.038 I0. J1.588
G3 X955.359 Y1144.041 I-0.999 J-0.999
G2 X955.824 Y1142.918 I-1.123 J-1.123
G1 Y1133.404
G2 X955.359 Y1132.281 I-1.588 J0.
G3 X957.357 Y1130.283 I0.999 J-0.999
G2 X958.479 Y1130.748 I1.123 J-1.123
G1 X999.994
G2 X1001.116 Y1130.283 I0. J-1.588
G3 X1003.114 Y1132.281 I0.999 J0.999
G2 X1002.649 Y1133.404 I1.122 J1.123
G1 Y1142.918
G2 X1003.114 Y1144.041 I1.588 J0.
G3 X1001.116 Y1146.038 I-0.999 J0.999
G2 X999.994 Y1145.573 I-1.122 J1.123
G1 X958.479
G3 X958.162 Y1145.256 I0. J-0.318
G1 Y1144.938
G19 G2 Y1144.621 Z-2.683 J0. K0.318
G1 X958.797
Z-5.683 F833.
G3 Y1144.938 Z-6. J0.318 K0. F2500.
G1 Y1145.256
G17 G3 X958.479 Y1145.573 I-0.317 J0.
G2 X957.357 Y1146.038 I0. J1.588
G3 X955.359 Y1144.041 I-0.999 J-0.999
G2 X955.824 Y1142.918 I-1.123 J-1.123
G1 Y1133.404
G2 X955.359 Y1132.281 I-1.588 J0.
G3 X957.357 Y1130.283 I0.999 J-0.999
G2 X958.479 Y1130.748 I1.123 J-1.123
G1 X999.994
G2 X1001.116 Y1130.283 I0. J-1.588
G3 X1003.114 Y1132.281 I0.999 J0.999
G2 X1002.649 Y1133.404 I1.122 J1.123
G1 Y1142.918
G2 X1003.114 Y1144.041 I1.588 J0.
G3 X1001.116 Y1146.038 I-0.999 J0.999
G2 X999.994 Y1145.573 I-1.122 J1.123
G1 X958.479
G3 X958.162 Y1145.256 I0. J-0.318
G1 Y1144.938
G19 G2 Y1144.621 Z-5.683 J0. K0.318
G1 X958.797
Z-8.683 F833.
G3 Y1144.938 Z-9. J0.318 K0. F2500.
G1 Y1145.256
G17 G3 X958.479 Y1145.573 I-0.317 J0.
G2 X957.357 Y1146.038 I0. J1.588
G3 X955.359 Y1144.041 I-0.999 J-0.999
G2 X955.824 Y1142.918 I-1.123 J-1.123
G1 Y1133.404
G2 X955.359 Y1132.281 I-1.588 J0.
G3 X957.357 Y1130.283 I0.999 J-0.999
G2 X958.479 Y1130.748 I1.123 J-1.123
G1 X999.994
G2 X1001.116 Y1130.283 I0. J-1.588
G3 X1003.114 Y1132.281 I0.999 J0.999
G2 X1002.649 Y1133.404 I1.122 J1.123
G1 Y1142.918
G2 X1003.114 Y1144.041 I1.588 J0.
G3 X1001.116 Y1146.038 I-0.999 J0.999
G2 X999.994 Y1145.573 I-1.122 J1.123
G1 X958.479
G3 X958.162 Y1145.256 I0. J-0.318
G1 Y1144.938
G19 G2 Y1144.621 Z-8.683 J0. K0.318
G1 X958.797
Z-11.683 F833.
G3 Y1144.938 Z-12. J0.318 K0. F2500.
G1 Y1145.256
G17 G3 X958.479 Y1145.573 I-0.317 J0.
G2 X957.357 Y1146.038 I0. J1.588
G3 X955.359 Y1144.041 I-0.999 J-0.999
G2 X955.824 Y1142.918 I-1.123 J-1.123
G1 Y1133.404
G2 X955.359 Y1132.281 I-1.588 J0.
G3 X957.357 Y1130.283 I0.999 J-0.999
G2 X958.479 Y1130.748 I1.123 J-1.123
G1 X999.994
G2 X1001.116 Y1130.283 I0. J-1.588
G3 X1003.114 Y1132.281 I0.999 J0.999
G2 X1002.649 Y1133.404 I1.122 J1.123
G1 Y1142.918
G2 X1003.114 Y1144.041 I1.588 J0.
G3 X1001.116 Y1146.038 I-0.999 J0.999
G2 X999.994 Y1145.573 I-1.122 J1.123
G1 X958.479
G3 X958.162 Y1145.256 I0. J-0.318
G1 Y1144.938
G19 G2 Y1144.621 Z-11.683 J0. K0.318
G1 X958.797
Z-14.683 F833.
G3 Y1144.938 Z-15. J0.318 K0. F2500.
G1 Y1145.256
G17 G3 X958.479 Y1145.573 I-0.317 J0.
G2 X957.357 Y1146.038 I0. J1.588
G3 X955.359 Y1144.041 I-0.999 J-0.999
G2 X955.824 Y1142.918 I-1.123 J-1.123
G1 Y1133.404
G2 X955.359 Y1132.281 I-1.588 J0.
G3 X957.357 Y1130.283 I0.999 J-0.999
G2 X958.479 Y1130.748 I1.123 J-1.123
G1 X999.994
G2 X1001.116 Y1130.283 I0. J-1.588
G3 X1003.114 Y1132.281 I0.999 J0.999
G2 X1002.649 Y1133.404 I1.122 J1.123
G1 Y1142.918
G2 X1003.114 Y1144.041 I1.588 J0.
G3 X1001.116 Y1146.038 I-0.999 J0.999
G2 X999.994 Y1145.573 I-1.122 J1.123
G1 X958.479
G3 X958.162 Y1145.256 I0. J-0.318
G1 Y1144.938
G19 G2 Y1144.621 Z-14.683 J0. K0.318
G1 X958.797
Z-17.683 F833.
G3 Y1144.938 Z-18. J0.318 K0. F2500.
G1 Y1145.256
G17 G3 X958.479 Y1145.573 I-0.317 J0.
G2 X957.357 Y1146.038 I0. J1.588
G3 X955.359 Y1144.041 I-0.999 J-0.999
G2 X955.824 Y1142.918 I-1.123 J-1.123
G1 Y1133.404
G2 X955.359 Y1132.281 I-1.588 J0.
G3 X957.357 Y1130.283 I0.999 J-0.999
G2 X958.479 Y1130.748 I1.123 J-1.123
G1 X999.994
G2 X1001.116 Y1130.283 I0. J-1.588
G3 X1003.114 Y1132.281 I0.999 J0.999
G2 X1002.649 Y1133.404 I1.122 J1.123
G1 Y1142.918
G2 X1003.114 Y1144.041 I1.588 J0.
G3 X1001.116 Y1146.038 I-0.999 J0.999
G2 X999.994 Y1145.573 I-1.122 J1.123
G1 X958.479
G3 X958.162 Y1145.256 I0. J-0.318
G1 Y1144.938
G19 G2 Y1144.621 Z-17.683 J0. K0.317
G0 Z5.
X976.512 Y1180.351
G1 Z2. F833.
Z-2.683
G2 Y1180.033 Z-3. J-0.318 K0. F2500.
G1 Y1179.716
G17 G3 X976.83 Y1179.398 I0.318 J0.
G1 X997.994
G2 X999.116 Y1178.933 I0. J-1.587
G3 X1001.114 I0.999 J0.999
Y1180.931 I-0.999 J0.999
G2 X1000.649 Y1182.053 I1.122 J1.122
G1 Y1191.568
G2 X1001.114 Y1192.691 I1.588 J0.
G3 X999.116 Y1194.688 I-0.999 J0.999
G2 X997.994 Y1194.223 I-1.122 J1.123
G1 X976.479
G2 X975.357 Y1194.688 I0. J1.588
G3 X973.359 Y1192.691 I-0.999 J-0.999
G2 X973.824 Y1191.568 I-1.123 J-1.123
G1 Y1182.053
G2 X973.359 Y1180.931 I-1.588 J0.
G3 Y1178.933 I0.999 J-0.999
X975.357 I0.999 J0.999
G2 X976.479 Y1179.398 I1.123 J-1.122
G1 X976.83
G3 X977.147 Y1179.716 I0. J0.318
G1 Y1180.033
G19 G3 Y1180.351 Z-2.683 J0. K0.318
G1 X976.512
Z-5.683 F833.
G2 Y1180.033 Z-6. J-0.318 K0. F2500.
G1 Y1179.716
G17 G3 X976.83 Y1179.398 I0.318 J0.
G1 X997.994
G2 X999.116 Y1178.933 I0. J-1.587
G3 X1001.114 I0.999 J0.999
Y1180.931 I-0.999 J0.999
G2 X1000.649 Y1182.053 I1.122 J1.122
G1 Y1191.568
G2 X1001.114 Y1192.691 I1.588 J0.
G3 X999.116 Y1194.688 I-0.999 J0.999
G2 X997.994 Y1194.223 I-1.122 J1.123
G1 X976.479
G2 X975.357 Y1194.688 I0. J1.588
G3 X973.359 Y1192.691 I-0.999 J-0.999
G2 X973.824 Y1191.568 I-1.123 J-1.123
G1 Y1182.053
G2 X973.359 Y1180.931 I-1.588 J0.
G3 Y1178.933 I0.999 J-0.999
X975.357 I0.999 J0.999
G2 X976.479 Y1179.398 I1.123 J-1.122
G1 X976.83
G3 X977.147 Y1179.716 I0. J0.318
G1 Y1180.033
G19 G3 Y1180.351 Z-5.683 J0. K0.318
G1 X976.512
Z-8.683 F833.
G2 Y1180.033 Z-9. J-0.318 K0. F2500.
G1 Y1179.716
G17 G3 X976.83 Y1179.398 I0.318 J0.
G1 X997.994
G2 X999.116 Y1178.933 I0. J-1.587
G3 X1001.114 I0.999 J0.999
Y1180.931 I-0.999 J0.999
G2 X1000.649 Y1182.053 I1.122 J1.122
G1 Y1191.568
G2 X1001.114 Y1192.691 I1.588 J0.
G3 X999.116 Y1194.688 I-0.999 J0.999
G2 X997.994 Y1194.223 I-1.122 J1.123
G1 X976.479
G2 X975.357 Y1194.688 I0. J1.588
G3 X973.359 Y1192.691 I-0.999 J-0.999
G2 X973.824 Y1191.568 I-1.123 J-1.123
G1 Y1182.053
G2 X973.359 Y1180.931 I-1.588 J0.
G3 Y1178.933 I0.999 J-0.999
X975.357 I0.999 J0.999
G2 X976.479 Y1179.398 I1.123 J-1.122
G1 X976.83
G3 X977.147 Y1179.716 I0. J0.318
G1 Y1180.033
G19 G3 Y1180.351 Z-8.683 J0. K0.318
G1 X976.512
Z-11.683 F833.
G2 Y1180.033 Z-12. J-0.318 K0. F2500.
G1 Y1179.716
G17 G3 X976.83 Y1179.398 I0.318 J0.
G1 X997.994
G2 X999.116 Y1178.933 I0. J-1.587
G3 X1001.114 I0.999 J0.999
Y1180.931 I-0.999 J0.999
G2 X1000.649 Y1182.053 I1.122 J1.122
G1 Y1191.568
G2 X1001.114 Y1192.691 I1.588 J0.
G3 X999.116 Y1194.688 I-0.999 J0.999
G2 X997.994 Y1194.223 I-1.122 J1.123
G1 X976.479
G2 X975.357 Y1194.688 I0. J1.588
G3 X973.359 Y1192.691 I-0.999 J-0.999
G2 X973.824 Y1191.568 I-1.123 J-1.123
G1 Y1182.053
G2 X973.359 Y1180.931 I-1.588 J0.
G3 Y1178.933 I0.999 J-0.999
X975.357 I0.999 J0.999
G2 X976.479 Y1179.398 I1.123 J-1.122
G1 X976.83
G3 X977.147 Y1179.716 I0. J0.318
G1 Y1180.033
G19 G3 Y1180.351 Z-11.683 J0. K0.318
G1 X976.512
Z-14.683 F833.
G2 Y1180.033 Z-15. J-0.318 K0. F2500.
G1 Y1179.716
G17 G3 X976.83 Y1179.398 I0.318 J0.
G1 X997.994
G2 X999.116 Y1178.933 I0. J-1.587
G3 X1001.114 I0.999 J0.999
Y1180.931 I-0.999 J0.999
G2 X1000.649 Y1182.053 I1.122 J1.122
G1 Y1191.568
G2 X1001.114 Y1192.691 I1.588 J0.
G3 X999.116 Y1194.688 I-0.999 J0.999
G2 X997.994 Y1194.223 I-1.122 J1.123
G1 X976.479
G2 X975.357 Y1194.688 I0. J1.588
G3 X973.359 Y1192.691 I-0.999 J-0.999
G2 X973.824 Y1191.568 I-1.123 J-1.123
G1 Y1182.053
G2 X973.359 Y1180.931 I-1.588 J0.
G3 Y1178.933 I0.999 J-0.999
X975.357 I0.999 J0.999
G2 X976.479 Y1179.398 I1.123 J-1.122
G1 X976.83
G3 X977.147 Y1179.716 I0. J0.318
G1 Y1180.033
G19 G3 Y1180.351 Z-14.683 J0. K0.318
G1 X976.512
Z-17.683 F833.
G2 Y1180.033 Z-18. J-0.318 K0. F2500.
G1 Y1179.716
G17 G3 X976.83 Y1179.398 I0.318 J0.
G1 X997.994
G2 X999.116 Y1178.933 I0. J-1.587
G3 X1001.114 I0.999 J0.999
Y1180.931 I-0.999 J0.999
G2 X1000.649 Y1182.053 I1.122 J1.122
G1 Y1191.568
G2 X1001.114 Y1192.691 I1.588 J0.
G3 X999.116 Y1194.688 I-0.999 J0.999
G2 X997.994 Y1194.223 I-1.122 J1.123
G1 X976.479
G2 X975.357 Y1194.688 I0. J1.588
G3 X973.359 Y1192.691 I-0.999 J-0.999
G2 X973.824 Y1191.568 I-1.123 J-1.123
G1 Y1182.053
G2 X973.359 Y1180.931 I-1.588 J0.
G3 Y1178.933 I0.999 J-0.999
X975.357 I0.999 J0.999
G2 X976.479 Y1179.398 I1.123 J-1.122
G1 X976.83
G3 X977.147 Y1179.716 I0. J0.318
G1 Y1180.033
G19 G3 Y1180.351 Z-17.683 J0. K0.317
G0 Z5.
X1242.147 Y965.383
G1 Z2. F833.
Z-2.683
G18 G2 X1242.464 Z-3. I0.318 K0. F2500.
G1 X1242.782
G17 G3 X1243.099 Y965.701 I0. J0.318
X1166.874 I-38.113 J0.
X1243.099 I38.113 J0.
X1242.782 Y966.018 I-0.318 J0.
G1 X1242.464
G18 G3 X1242.147 Z-2.683 I0. K0.318
G1 Y965.383
Z-5.683 F833.
G2 X1242.464 Z-6. I0.318 K0. F2500.
G1 X1242.782
G17 G3 X1243.099 Y965.701 I0. J0.318
X1166.874 I-38.113 J0.
X1243.099 I38.113 J0.
X1242.782 Y966.018 I-0.318 J0.
G1 X1242.464
G18 G3 X1242.147 Z-5.683 I0. K0.318
G1 Y965.383
Z-8.683 F833.
G2 X1242.464 Z-9. I0.318 K0. F2500.
G1 X1242.782
G17 G3 X1243.099 Y965.701 I0. J0.318
X1166.874 I-38.113 J0.
X1243.099 I38.113 J0.
X1242.782 Y966.018 I-0.318 J0.
G1 X1242.464
G18 G3 X1242.147 Z-8.683 I0. K0.318
G1 Y965.383
Z-11.683 F833.
G2 X1242.464 Z-12. I0.318 K0. F2500.
G1 X1242.782
G17 G3 X1243.099 Y965.701 I0. J0.318
X1166.874 I-38.113 J0.
X1243.099 I38.113 J0.
X1242.782 Y966.018 I-0.318 J0.
G1 X1242.464
G18 G3 X1242.147 Z-11.683 I0. K0.318
G1 Y965.383
Z-14.683 F833.
G2 X1242.464 Z-15. I0.318 K0. F2500.
G1 X1242.782
G17 G3 X1243.099 Y965.701 I0. J0.318
X1166.874 I-38.113 J0.
X1243.099 I38.113 J0.
X1242.782 Y966.018 I-0.318 J0.
G1 X1242.464
G18 G3 X1242.147 Z-14.683 I0. K0.318
G1 Y965.383
Z-17.683 F833.
G2 X1242.464 Z-18. I0.318 K0. F2500.
G1 X1242.782
G17 G3 X1243.099 Y965.701 I0. J0.318
X1166.874 I-38.113 J0.
X1243.099 I38.113 J0.
X1242.782 Y966.018 I-0.318 J0.
G1 X1242.464
G18 G3 X1242.147 Z-17.683 I0. K0.317
G0 Z15.
G17

(2D CONTOUR2)
G0 X580.893 Y1369.701
Z15.
Z5.
G1 Z2. F833.
Z-2.683
G19 G2 Y1369.383 Z-3. J-0.317 K0. F2500.
G1 Y1369.066
G17 G3 X581.211 Y1368.748 I0.318 J0.
G1 X1102.237
G2 X1103.824 Y1367.161 I0. J-1.588
G1 Y1317.161
G2 X1102.237 Y1315.573 I-1.587 J0.
G1 X1088.479
G2 X1087.357 Y1316.038 I0. J1.588
G3 X1085.359 Y1314.041 I-0.999 J-0.999
G2 X1085.824 Y1312.918 I-1.122 J-1.123
G1 Y1271.404
G2 X1085.359 Y1270.281 I-1.587 J0.
G3 X1087.357 Y1268.283 I0.999 J-0.999
G2 X1088.479 Y1268.748 I1.123 J-1.123
G1 X1102.237
G2 X1103.824 Y1267.161 I0. J-1.588
G1 Y1067.161
G2 X1102.237 Y1065.573 I-1.587 J0.
G1 X1088.479
G2 X1087.357 Y1066.038 I0. J1.588
G3 X1085.359 Y1064.041 I-0.999 J-0.999
G2 X1085.824 Y1062.918 I-1.122 J-1.123
G1 Y1021.404
G2 X1085.359 Y1020.281 I-1.587 J0.
G3 X1087.357 Y1018.283 I0.999 J-0.999
G2 X1088.479 Y1018.748 I1.123 J-1.122
G1 X1102.237
G2 X1103.824 Y1017.161 I0. J-1.587
G1 Y967.161
G2 X1102.237 Y965.573 I-1.587 J0.
G1 X984.237
G2 X982.649 Y967.161 I0. J1.588
G1 Y982.161
G2 X984.237 Y983.748 I1.588 J0.
G3 Y986.573 I0. J1.413
X982.824 Y985.161 I0. J-1.412
G2 X981.237 Y983.573 I-1.588 J0.
G1 X937.237
G2 X935.649 Y985.161 I0. J1.588
G3 X932.824 I-1.412 J0.
X934.237 Y983.748 I1.413 J0.
G2 X935.824 Y982.161 I0. J-1.587
G1 Y967.161
G2 X934.237 Y965.573 I-1.588 J0.
G1 X580.118
G2 X578.531 Y967.161 I0. J1.588
G1 Y982.161
G2 X580.119 Y983.748 I1.588 J0.
G3 X580.121 Y986.573 I0.001 J1.413
X578.708 Y985.161 I-0.001 J-1.412
G2 X577.12 Y983.573 I-1.588 J0.
G1 X533.12
G2 X531.532 Y985.161 I0. J1.588
G3 X528.707 I-1.412 J0.
X530.119 Y983.748 I1.413 J0.
G2 X531.706 Y982.161 I-0.001 J-1.587
G1 Y967.161
G2 X530.118 Y965.573 I-1.587 J0.
G1 X176.
G2 X174.413 Y967.161 I0. J1.588
G1 Y982.161
G2 X176. Y983.748 I1.587 J0.
G3 Y986.573 I0. J1.413
X174.587 Y985.161 I0. J-1.413
G2 X173. Y983.573 I-1.587 J0.
G1 X129.
G2 X127.412 Y985.161 I0. J1.588
G3 X124.587 I-1.412 J0.
X126. Y983.748 I1.413 J0.
G2 X127.588 Y982.161 I0. J-1.587
G1 Y967.161
G2 X126. Y965.573 I-1.588 J0.
G1 X8.
G2 X6.412 Y967.161 I0. J1.588
G1 Y1017.161
G2 X8. Y1018.748 I1.588 J0.
G1 X21.757
G2 X22.88 Y1018.283 I0. J-1.587
G3 X24.877 Y1020.281 I0.999 J0.999
G2 X24.413 Y1021.404 I1.123 J1.123
G1 Y1062.918
G2 X24.877 Y1064.041 I1.587 J0.
G3 X22.88 Y1066.038 I-0.999 J0.999
G2 X21.757 Y1065.573 I-1.123 J1.123
G1 X8.
G2 X6.412 Y1067.161 I0. J1.588
G1 Y1267.161
G2 X8. Y1268.748 I1.588 J0.
G1 X21.757
G2 X22.88 Y1268.283 I0. J-1.588
G3 X24.877 Y1270.281 I0.999 J0.999
G2 X24.413 Y1271.404 I1.123 J1.123
G1 Y1312.918
G2 X24.877 Y1314.041 I1.587 J0.
G3 X22.88 Y1316.038 I-0.999 J0.999
G2 X21.757 Y1315.573 I-1.123 J1.123
G1 X8.
G2 X6.412 Y1317.161 I0. J1.588
G1 Y1367.161
G2 X8. Y1368.748 I1.588 J0.
G1 X581.211
G3 X581.529 Y1369.066 I0. J0.318
G1 Y1369.383
G19 G3 Y1369.701 Z-2.683 J0. K0.318
G1 X580.893
Z-5.683 F833.
G2 Y1369.383 Z-6. J-0.317 K0. F2500.
G1 Y1369.066
G17 G3 X581.211 Y1368.748 I0.318 J0.
G1 X1102.237
G2 X1103.824 Y1367.161 I0. J-1.588
G1 Y1317.161
G2 X1102.237 Y1315.573 I-1.587 J0.
G1 X1088.479
G2 X1087.357 Y1316.038 I0. J1.588
G3 X1085.359 Y1314.041 I-0.999 J-0.999
G2 X1085.824 Y1312.918 I-1.122 J-1.123
G1 Y1271.404
G2 X1085.359 Y1270.281 I-1.587 J0.
G3 X1087.357 Y1268.283 I0.999 J-0.999
G2 X1088.479 Y1268.748 I1.123 J-1.123
G1 X1102.237
G2 X1103.824 Y1267.161 I0. J-1.588
G1 Y1067.161
G2 X1102.237 Y1065.573 I-1.587 J0.
G1 X1088.479
G2 X1087.357 Y1066.038 I0. J1.588
G3 X1085.359 Y1064.041 I-0.999 J-0.999
G2 X1085.824 Y1062.918 I-1.122 J-1.123
G1 Y1021.404
G2 X1085.359 Y1020.281 I-1.587 J0.
G3 X1087.357 Y1018.283 I0.999 J-0.999
G2 X1088.479 Y1018.748 I1.123 J-1.122
G1 X1102.237
G2 X1103.824 Y1017.161 I0. J-1.587
G1 Y967.161
G2 X1102.237 Y965.573 I-1.587 J0.
G1 X984.237
G2 X982.649 Y967.161 I0. J1.588
G1 Y982.161
G2 X984.237 Y983.748 I1.588 J0.
G3 Y986.573 I0. J1.413
X982.824 Y985.161 I0. J-1.412
G2 X981.237 Y983.573 I-1.588 J0.
G1 X937.237
G2 X935.649 Y985.161 I0. J1.588
G3 X932.824 I-1.412 J0.
X934.237 Y983.748 I1.413 J0.
G2 X935.824 Y982.161 I0. J-1.587
G1 Y967.161
G2 X934.237 Y965.573 I-1.588 J0.
G1 X580.118
G2 X578.531 Y967.161 I0. J1.588
G1 Y982.161
G2 X580.119 Y983.748 I1.588 J0.
G3 X580.121 Y986.573 I0.001 J1.413
X578.708 Y985.161 I-0.001 J-1.412
G2 X577.12 Y983.573 I-1.588 J0.
G1 X533.12
G2 X531.532 Y985.161 I0. J1.588
G3 X528.707 I-1.412 J0.
X530.119 Y983.748 I1.413 J0.
G2 X531.706 Y982.161 I-0.001 J-1.587
G1 Y967.161
G2 X530.118 Y965.573 I-1.587 J0.
G1 X176.
G2 X174.413 Y967.161 I0. J1.588
G1 Y982.161
G2 X176. Y983.748 I1.587 J0.
G3 Y986.573 I0. J1.413
X174.587 Y985.161 I0. J-1.413
G2 X173. Y983.573 I-1.587 J0.
G1 X129.
G2 X127.412 Y985.161 I0. J1.588
G3 X124.587 I-1.412 J0.
X126. Y983.748 I1.413 J0.
G2 X127.588 Y982.161 I0. J-1.587
G1 Y967.161
G2 X126. Y965.573 I-1.588 J0.
G1 X8.
G2 X6.412 Y967.161 I0. J1.588
G1 Y1017.161
G2 X8. Y1018.748 I1.588 J0.
G1 X21.757
G2 X22.88 Y1018.283 I0. J-1.587
G3 X24.877 Y1020.281 I0.999 J0.999
G2 X24.413 Y1021.404 I1.123 J1.123
G1 Y1062.918
G2 X24.877 Y1064.041 I1.587 J0.
G3 X22.88 Y1066.038 I-0.999 J0.999
G2 X21.757 Y1065.573 I-1.123 J1.123
G1 X8.
G2 X6.412 Y1067.161 I0. J1.588
G1 Y1267.161
G2 X8. Y1268.748 I1.588 J0.
G1 X21.757
G2 X22.88 Y1268.283 I0. J-1.588
G3 X24.877 Y1270.281 I0.999 J0.999
G2 X24.413 Y1271.404 I1.123 J1.123
G1 Y1312.918
G2 X24.877 Y1314.041 I1.587 J0.
G3 X22.88 Y1316.038 I-0.999 J0.999
G2 X21.757 Y1315.573 I-1.123 J1.123
G1 X8.
G2 X6.412 Y1317.161 I0. J1.588
G1 Y1367.161
G2 X8. Y1368.748 I1.588 J0.
G1 X581.211
G3 X581.529 Y1369.066 I0. J0.318
G1 Y1369.383
G19 G3 Y1369.701 Z-5.683 J0. K0.318
G1 X580.893
Z-8.683 F833.
G2 Y1369.383 Z-9. J-0.317 K0. F2500.
G1 Y1369.066
G17 G3 X581.211 Y1368.748 I0.318 J0.
G1 X1102.237
G2 X1103.824 Y1367.161 I0. J-1.588
G1 Y1317.161
G2 X1102.237 Y1315.573 I-1.587 J0.
G1 X1088.479
G2 X1087.357 Y1316.038 I0. J1.588
G3 X1085.359 Y1314.041 I-0.999 J-0.999
G2 X1085.824 Y1312.918 I-1.122 J-1.123
G1 Y1271.404
G2 X1085.359 Y1270.281 I-1.587 J0.
G3 X1087.357 Y1268.283 I0.999 J-0.999
G2 X1088.479 Y1268.748 I1.123 J-1.123
G1 X1102.237
G2 X1103.824 Y1267.161 I0. J-1.588
G1 Y1067.161
G2 X1102.237 Y1065.573 I-1.587 J0.
G1 X1088.479
G2 X1087.357 Y1066.038 I0. J1.588
G3 X1085.359 Y1064.041 I-0.999 J-0.999
G2 X1085.824 Y1062.918 I-1.122 J-1.123
G1 Y1021.404
G2 X1085.359 Y1020.281 I-1.587 J0.
G3 X1087.357 Y1018.283 I0.999 J-0.999
G2 X1088.479 Y1018.748 I1.123 J-1.122
G1 X1102.237
G2 X1103.824 Y1017.161 I0. J-1.587
G1 Y967.161
G2 X1102.237 Y965.573 I-1.587 J0.
G1 X984.237
G2 X982.649 Y967.161 I0. J1.588
G1 Y982.161
G2 X984.237 Y983.748 I1.588 J0.
G3 Y986.573 I0. J1.413
X982.824 Y985.161 I0. J-1.412
G2 X981.237 Y983.573 I-1.588 J0.
G1 X937.237
G2 X935.649 Y985.161 I0. J1.588
G3 X932.824 I-1.412 J0.
X934.237 Y983.748 I1.413 J0.
G2 X935.824 Y982.161 I0. J-1.587
G1 Y967.161
G2 X934.237 Y965.573 I-1.588 J0.
G1 X580.118
G2 X578.531 Y967.161 I0. J1.588
G1 Y982.161
G2 X580.119 Y983.748 I1.588 J0.
G3 X580.121 Y986.573 I0.001 J1.413
X578.708 Y985.161 I-0.001 J-1.412
G2 X577.12 Y983.573 I-1.588 J0.
G1 X533.12
G2 X531.532 Y985.161 I0. J1.588
G3 X528.707 I-1.412 J0.
X530.119 Y983.748 I1.413 J0.
G2 X531.706 Y982.161 I-0.001 J-1.587
G1 Y967.161
G2 X530.118 Y965.573 I-1.587 J0.
G1 X176.
G2 X174.413 Y967.161 I0. J1.588
G1 Y982.161
G2 X176. Y983.748 I1.587 J0.
G3 Y986.573 I0. J1.413
X174.587 Y985.161 I0. J-1.413
G2 X173. Y983.573 I-1.587 J0.
G1 X129.
G2 X127.412 Y985.161 I0. J1.588
G3 X124.587 I-1.412 J0.
X126. Y983.748 I1.413 J0.
G2 X127.588 Y982.161 I0. J-1.587
G1 Y967.161
G2 X126. Y965.573 I-1.588 J0.
G1 X8.
G2 X6.412 Y967.161 I0. J1.588
G1 Y1017.161
G2 X8. Y1018.748 I1.588 J0.
G1 X21.757
G2 X22.88 Y1018.283 I0. J-1.587
G3 X24.877 Y1020.281 I0.999 J0.999
G2 X24.413 Y1021.404 I1.123 J1.123
G1 Y1062.918
G2 X24.877 Y1064.041 I1.587 J0.
G3 X22.88 Y1066.038 I-0.999 J0.999
G2 X21.757 Y1065.573 I-1.123 J1.123
G1 X8.
G2 X6.412 Y1067.161 I0. J1.588
G1 Y1267.161
G2 X8. Y1268.748 I1.588 J0.
G1 X21.757
G2 X22.88 Y1268.283 I0. J-1.588
G3 X24.877 Y1270.281 I0.999 J0.999
G2 X24.413 Y1271.404 I1.123 J1.123
G1 Y1312.918
G2 X24.877 Y1314.041 I1.587 J0.
G3 X22.88 Y1316.038 I-0.999 J0.999
G2 X21.757 Y1315.573 I-1.123 J1.123
G1 X8.
G2 X6.412 Y1317.161 I0. J1.588
G1 Y1367.161
G2 X8. Y1368.748 I1.588 J0.
G1 X581.211
G3 X581.529 Y1369.066 I0. J0.318
G1 Y1369.383
G19 G3 Y1369.701 Z-8.683 J0. K0.318
G1 X580.893
Z-11.683 F833.
G2 Y1369.383 Z-12. J-0.317 K0. F2500.
G1 Y1369.066
G17 G3 X581.211 Y1368.748 I0.318 J0.
G1 X1102.237
G2 X1103.824 Y1367.161 I0. J-1.588
G1 Y1317.161
G2 X1102.237 Y1315.573 I-1.587 J0.
G1 X1088.479
G2 X1087.357 Y1316.038 I0. J1.588
G3 X1085.359 Y1314.041 I-0.999 J-0.999
G2 X1085.824 Y1312.918 I-1.122 J-1.123
G1 Y1271.404
G2 X1085.359 Y1270.281 I-1.587 J0.
G3 X1087.357 Y1268.283 I0.999 J-0.999
G2 X1088.479 Y1268.748 I1.123 J-1.123
G1 X1102.237
G2 X1103.824 Y1267.161 I0. J-1.588
G1 Y1067.161
G2 X1102.237 Y1065.573 I-1.587 J0.
G1 X1088.479
G2 X1087.357 Y1066.038 I0. J1.588
G3 X1085.359 Y1064.041 I-0.999 J-0.999
G2 X1085.824 Y1062.918 I-1.122 J-1.123
G1 Y1021.404
G2 X1085.359 Y1020.281 I-1.587 J0.
G3 X1087.357 Y1018.283 I0.999 J-0.999
G2 X1088.479 Y1018.748 I1.123 J-1.122
G1 X1102.237
G2 X1103.824 Y1017.161 I0. J-1.587
G1 Y967.161
G2 X1102.237 Y965.573 I-1.587 J0.
G1 X984.237
G2 X982.649 Y967.161 I0. J1.588
G1 Y982.161
G2 X984.237 Y983.748 I1.588 J0.
G3 Y986.573 I0. J1.413
X982.824 Y985.161 I0. J-1.412
G2 X981.237 Y983.573 I-1.588 J0.
G1 X937.237
G2 X935.649 Y985.161 I0. J1.588
G3 X932.824 I-1.412 J0.
X934.237 Y983.748 I1.413 J0.
G2 X935.824 Y982.161 I0. J-1.587
G1 Y967.161
G2 X934.237 Y965.573 I-1.588 J0.
G1 X580.118
G2 X578.531 Y967.161 I0. J1.588
G1 Y982.161
G2 X580.119 Y983.748 I1.588 J0.
G3 X580.121 Y986.573 I0.001 J1.413
X578.708 Y985.161 I-0.001 J-1.412
G2 X577.12 Y983.573 I-1.588 J0.
G1 X533.12
G2 X531.532 Y985.161 I0. J1.588
G3 X528.707 I-1.412 J0.
X530.119 Y983.748 I1.413 J0.
G2 X531.706 Y982.161 I-0.001 J-1.587
G1 Y967.161
G2 X530.118 Y965.573 I-1.587 J0.
G1 X176.
G2 X174.413 Y967.161 I0. J1.588
G1 Y982.161
G2 X176. Y983.748 I1.587 J0.
G3 Y986.573 I0. J1.413
X174.587 Y985.161 I0. J-1.413
G2 X173. Y983.573 I-1.587 J0.
G1 X129.
G2 X127.412 Y985.161 I0. J1.588
G3 X124.587 I-1.412 J0.
X126. Y983.748 I1.413 J0.
G2 X127.588 Y982.161 I0. J-1.587
G1 Y967.161
G2 X126. Y965.573 I-1.588 J0.
G1 X8.
G2 X6.412 Y967.161 I0. J1.588
G1 Y1017.161
G2 X8. Y1018.748 I1.588 J0.
G1 X21.757
G2 X22.88 Y1018.283 I0. J-1.587
G3 X24.877 Y1020.281 I0.999 J0.999
G2 X24.413 Y1021.404 I1.123 J1.123
G1 Y1062.918
G2 X24.877 Y1064.041 I1.587 J0.
G3 X22.88 Y1066.038 I-0.999 J0.999
G2 X21.757 Y1065.573 I-1.123 J1.123
G1 X8.
G2 X6.412 Y1067.161 I0. J1.588
G1 Y1267.161
G2 X8. Y1268.748 I1.588 J0.
G1 X21.757
G2 X22.88 Y1268.283 I0. J-1.588
G3 X24.877 Y1270.281 I0.999 J0.999
G2 X24.413 Y1271.404 I1.123 J1.123
G1 Y1312.918
G2 X24.877 Y1314.041 I1.587 J0.
G3 X22.88 Y1316.038 I-0.999 J0.999
G2 X21.757 Y1315.573 I-1.123 J1.123
G1 X8.
G2 X6.412 Y1317.161 I0. J1.588
G1 Y1367.161
G2 X8. Y1368.748 I1.588 J0.
G1 X581.211
G3 X581.529 Y1369.066 I0. J0.318
G1 Y1369.383
G19 G3 Y1369.701 Z-11.683 J0. K0.318
G1 X580.893
Z-14.683 F833.
G2 Y1369.383 Z-15. J-0.317 K0. F2500.
G1 Y1369.066
G17 G3 X581.211 Y1368.748 I0.318 J0.
G1 X1102.237
G2 X1103.824 Y1367.161 I0. J-1.588
G1 Y1317.161
G2 X1102.237 Y1315.573 I-1.587 J0.
G1 X1088.479
G2 X1087.357 Y1316.038 I0. J1.588
G3 X1085.359 Y1314.041 I-0.999 J-0.999
G2 X1085.824 Y1312.918 I-1.122 J-1.123
G1 Y1271.404
G2 X1085.359 Y1270.281 I-1.587 J0.
G3 X1087.357 Y1268.283 I0.999 J-0.999
G2 X1088.479 Y1268.748 I1.123 J-1.123
G1 X1102.237
G2 X1103.824 Y1267.161 I0. J-1.588
G1 Y1067.161
G2 X1102.237 Y1065.573 I-1.587 J0.
G1 X1088.479
G2 X1087.357 Y1066.038 I0. J1.588
G3 X1085.359 Y1064.041 I-0.999 J-0.999
G2 X1085.824 Y1062.918 I-1.122 J-1.123
G1 Y1021.404
G2 X1085.359 Y1020.281 I-1.587 J0.
G3 X1087.357 Y1018.283 I0.999 J-0.999
G2 X1088.479 Y1018.748 I1.123 J-1.122
G1 X1102.237
G2 X1103.824 Y1017.161 I0. J-1.587
G1 Y967.161
G2 X1102.237 Y965.573 I-1.587 J0.
G1 X984.237
G2 X982.649 Y967.161 I0. J1.588
G1 Y982.161
G2 X984.237 Y983.748 I1.588 J0.
G3 Y986.573 I0. J1.413
X982.824 Y985.161 I0. J-1.412
G2 X981.237 Y983.573 I-1.588 J0.
G1 X937.237
G2 X935.649 Y985.161 I0. J1.588
G3 X932.824 I-1.412 J0.
X934.237 Y983.748 I1.413 J0.
G2 X935.824 Y982.161 I0. J-1.587
G1 Y967.161
G2 X934.237 Y965.573 I-1.588 J0.
G1 X580.118
G2 X578.531 Y967.161 I0. J1.588
G1 Y982.161
G2 X580.119 Y983.748 I1.588 J0.
G3 X580.121 Y986.573 I0.001 J1.413
X578.708 Y985.161 I-0.001 J-1.412
G2 X577.12 Y983.573 I-1.588 J0.
G1 X533.12
G2 X531.532 Y985.161 I0. J1.588
G3 X528.707 I-1.412 J0.
X530.119 Y983.748 I1.413 J0.
G2 X531.706 Y982.161 I-0.001 J-1.587
G1 Y967.161
G2 X530.118 Y965.573 I-1.587 J0.
G1 X176.
G2 X174.413 Y967.161 I0. J1.588
G1 Y982.161
G2 X176. Y983.748 I1.587 J0.
G3 Y986.573 I0. J1.413
X174.587 Y985.161 I0. J-1.413
G2 X173. Y983.573 I-1.587 J0.
G1 X129.
G2 X127.412 Y985.161 I0. J1.588
G3 X124.587 I-1.412 J0.
X126. Y983.748 I1.413 J0.
G2 X127.588 Y982.161 I0. J-1.587
G1 Y967.161
G2 X126. Y965.573 I-1.588 J0.
G1 X8.
G2 X6.412 Y967.161 I0. J1.588
G1 Y1017.161
G2 X8. Y1018.748 I1.588 J0.
G1 X21.757
G2 X22.88 Y1018.283 I0. J-1.587
G3 X24.877 Y1020.281 I0.999 J0.999
G2 X24.413 Y1021.404 I1.123 J1.123
G1 Y1062.918
G2 X24.877 Y1064.041 I1.587 J0.
G3 X22.88 Y1066.038 I-0.999 J0.999
